(G-CODE GENERATED BY FLATCAM v8.994 - www.flatcam.org - Version Date: 2020/11/7)

(Name: fast_diode_pcb-F_Cu.gbr_iso_combined_cnc)
(Type: G-code from Geometry)
(Units: MM)

(Created on Tuesday, 16 January 2024 at 15:22)

(This preprocessor is the default preprocessor used by FlatCAM.)
(It is made to work with MACH3 compatible motion controllers.)

(TOOL DIAMETER: 0.2536 mm)
(Feedrate_XY: 120.0 mm/min)
(Feedrate_Z: 60.0 mm/min)
(Feedrate rapids 1500.0 mm/min)

(Z_Cut: -0.1 mm)
(Z_Move: 2.0 mm)
(Z Start: None mm)
(Z End: 15.0 mm)
(X,Y End: None mm)
(Steps per circle: 64)
(Preprocessor Geometry: default)

(X range:  -63.2118 ...  -15.0881  mm)
(Y range:   -8.9669 ...   19.2269  mm)

(Spindle Speed: 0.0 RPM)
G21
G90
G94

G01 F120.00

M5
G00 Z15.0000
G00 X0.0000 Y0.0000
T2M6    
(MSG, Change to Tool Dia = 0.2536)
M0
G00 Z15.0000

M03
G01 F120.00
G00 X-19.9141 Y7.8359
G01 F60.00
G01 Z-0.1000
G01 F120.00
G01 X-19.8303 Y7.8706
G01 X-19.6696 Y7.9779
G01 X-19.5330 Y8.1146
G01 X-19.4256 Y8.2753
G01 X-19.3516 Y8.4538
G01 X-19.3320 Y8.5524
G01 X-19.3374 Y8.5591
G01 X-19.5918 Y8.5591
G01 X-19.6004 Y8.5261
G01 X-19.6213 Y8.4677
G01 X-19.6247 Y8.4590
G01 X-19.6540 Y8.3974
G01 X-19.6873 Y8.3415
G01 X-19.6943 Y8.3311
G01 X-19.7332 Y8.2789
G01 X-19.7768 Y8.2306
G01 X-19.7833 Y8.2239
G01 X-19.8292 Y8.1823
G01 X-19.8363 Y8.1762
G01 X-19.8886 Y8.1375
G01 X-19.9141 Y8.1218
G01 X-19.9141 Y7.8359
G00 Z2.0000
G00 X-20.9982 Y8.5591
G01 F60.00
G01 Z-0.1000
G01 F120.00
G01 X-21.2526 Y8.5591
G01 X-21.2579 Y8.5524
G01 X-21.2383 Y8.4538
G01 X-21.1644 Y8.2753
G01 X-21.0570 Y8.1146
G01 X-20.9203 Y7.9779
G01 X-20.7597 Y7.8706
G01 X-20.6759 Y7.8359
G01 X-20.6759 Y8.1218
G01 X-20.7013 Y8.1375
G01 X-20.7536 Y8.1762
G01 X-20.7608 Y8.1823
G01 X-20.8067 Y8.2239
G01 X-20.8132 Y8.2306
G01 X-20.8568 Y8.2789
G01 X-20.8957 Y8.3311
G01 X-20.9026 Y8.3415
G01 X-20.9360 Y8.3974
G01 X-20.9652 Y8.4590
G01 X-20.9687 Y8.4677
G01 X-20.9896 Y8.5261
G01 X-20.9982 Y8.5591
G00 Z2.0000
G00 X-20.9982 Y9.3209
G01 F60.00
G01 Z-0.1000
G01 F120.00
G01 X-20.9896 Y9.3540
G01 X-20.9687 Y9.4123
G01 X-20.9652 Y9.4210
G01 X-20.9360 Y9.4826
G01 X-20.9026 Y9.5385
G01 X-20.8957 Y9.5489
G01 X-20.8568 Y9.6011
G01 X-20.8132 Y9.6494
G01 X-20.8067 Y9.6561
G01 X-20.7608 Y9.6978
G01 X-20.7536 Y9.7038
G01 X-20.7013 Y9.7426
G01 X-20.6759 Y9.7582
G01 X-20.6759 Y10.0441
G01 X-20.7597 Y10.0094
G01 X-20.9203 Y9.9021
G01 X-21.0570 Y9.7654
G01 X-21.1644 Y9.6048
G01 X-21.2383 Y9.4262
G01 X-21.2579 Y9.3276
G01 X-21.2526 Y9.3209
G01 X-20.9982 Y9.3209
G00 Z2.0000
G00 X-19.9141 Y9.7582
G01 F60.00
G01 Z-0.1000
G01 F120.00
G01 X-19.8886 Y9.7426
G01 X-19.8363 Y9.7038
G01 X-19.8292 Y9.6978
G01 X-19.7833 Y9.6561
G01 X-19.7768 Y9.6494
G01 X-19.7332 Y9.6011
G01 X-19.6943 Y9.5489
G01 X-19.6873 Y9.5385
G01 X-19.6540 Y9.4826
G01 X-19.6247 Y9.4210
G01 X-19.6213 Y9.4123
G01 X-19.6004 Y9.3540
G01 X-19.5918 Y9.3209
G01 X-19.3374 Y9.3209
G01 X-19.3320 Y9.3276
G01 X-19.3516 Y9.4262
G01 X-19.4256 Y9.6048
G01 X-19.5330 Y9.7654
G01 X-19.6696 Y9.9021
G01 X-19.8303 Y10.0094
G01 X-19.9141 Y10.0441
G01 X-19.9141 Y9.7582
G00 Z2.0000
G00 X-49.4810 Y8.5591
G01 F60.00
G01 Z-0.1000
G01 F120.00
G01 X-49.5076 Y8.5031
G01 X-49.5544 Y8.4251
G01 X-49.6086 Y8.3521
G01 X-49.6653 Y8.2892
G01 X-49.6741 Y8.2804
G01 X-49.7323 Y8.2277
G01 X-49.7419 Y8.2198
G01 X-49.8101 Y8.1694
G01 X-49.8827 Y8.1257
G01 X-49.8937 Y8.1198
G01 X-49.9646 Y8.0863
G01 X-49.9761 Y8.0815
G01 X-50.0560 Y8.0531
G01 X-50.1411 Y8.0317
G01 X-50.1503 Y8.0300
G01 X-50.2280 Y8.0184
G01 X-50.2372 Y8.0174
G01 X-50.3219 Y8.0133
G01 X-50.3941 Y8.0132
G01 X-50.3941 Y7.7589
G01 X-50.2217 Y7.7589
G01 X-49.9921 Y7.8022
G01 X-49.7765 Y7.8890
G01 X-49.5820 Y8.0162
G01 X-49.4161 Y8.1789
G01 X-49.2850 Y8.3708
G01 X-49.2050 Y8.5587
G01 X-49.2053 Y8.5591
G01 X-49.4810 Y8.5591
G00 Z2.0000
G00 X-51.2250 Y10.5532
G01 F60.00
G01 Z-0.1000
G01 F120.00
G01 X-50.3250 Y10.5532
G01 X-50.2404 Y10.5572
G01 X-50.2280 Y10.5584
G01 X-50.1503 Y10.5700
G01 X-50.1381 Y10.5724
G01 X-50.0560 Y10.5931
G01 X-49.9761 Y10.6215
G01 X-49.9646 Y10.6263
G01 X-49.8881 Y10.6626
G01 X-49.8101 Y10.7094
G01 X-49.7370 Y10.7636
G01 X-49.6696 Y10.8247
G01 X-49.6126 Y10.8873
G01 X-49.6047 Y10.8970
G01 X-49.5544 Y10.9651
G01 X-49.5107 Y11.0377
G01 X-49.5048 Y11.0487
G01 X-49.4687 Y11.1253
G01 X-49.4390 Y11.2080
G01 X-49.4336 Y11.2281
G01 X-49.3793 Y11.2281
G01 X-47.2169 Y9.0657
G01 X-47.2169 Y6.4000
G01 X-47.2161 Y6.3815
G01 X-47.2153 Y6.3722
G01 X-47.2126 Y6.3539
G01 X-47.2106 Y6.3448
G01 X-47.2060 Y6.3269
G01 X-47.1999 Y6.3094
G01 X-47.1965 Y6.3008
G01 X-47.1871 Y6.2813
G01 X-47.1761 Y6.2627
G01 X-47.1708 Y6.2550
G01 X-47.1597 Y6.2402
G01 X-47.1453 Y6.2241
G01 X-46.3030 Y5.3819
G01 X-46.9650 Y5.3819
G01 X-46.9835 Y5.3811
G01 X-46.9928 Y5.3803
G01 X-47.0141 Y5.3770
G01 X-47.0351 Y5.3719
G01 X-47.0440 Y5.3691
G01 X-47.0614 Y5.3627
G01 X-47.0810 Y5.3536
G01 X-47.0997 Y5.3428
G01 X-47.1100 Y5.3358
G01 X-47.1248 Y5.3247
G01 X-47.1431 Y5.3081
G01 X-49.0481 Y3.4031
G01 X-49.0647 Y3.3848
G01 X-49.0794 Y3.3649
G01 X-49.0921 Y3.3437
G01 X-49.1015 Y3.3243
G01 X-49.1049 Y3.3156
G01 X-49.1110 Y3.2981
G01 X-49.1170 Y3.2741
G01 X-49.1206 Y3.2497
G01 X-49.1219 Y3.2250
G01 X-49.1219 Y0.7473
G01 X-49.1316 Y0.7432
G01 X-49.1532 Y0.7326
G01 X-49.1738 Y0.7202
G01 X-49.1932 Y0.7059
G01 X-49.2112 Y0.6900
G01 X-49.2200 Y0.6812
G01 X-49.2340 Y0.6656
G01 X-49.2484 Y0.6464
G01 X-49.2610 Y0.6259
G01 X-49.2669 Y0.6149
G01 X-49.2757 Y0.5959
G01 X-49.2849 Y0.5704
G01 X-49.2908 Y0.5471
G01 X-49.2925 Y0.5379
G01 X-49.2955 Y0.5171
G01 X-49.2967 Y0.4931
G01 X-49.2968 Y-0.8100
G01 X-49.2959 Y-0.8309
G01 X-49.2947 Y-0.8433
G01 X-49.2920 Y-0.8609
G01 X-49.2901 Y-0.8701
G01 X-49.2839 Y-0.8933
G01 X-49.2769 Y-0.9130
G01 X-49.2732 Y-0.9216
G01 X-49.2641 Y-0.9405
G01 X-49.2501 Y-0.9638
G01 X-49.2340 Y-0.9856
G01 X-49.2157 Y-1.0057
G01 X-49.1956 Y-1.0240
G01 X-49.1789 Y-1.0366
G01 X-49.1712 Y-1.0418
G01 X-49.1559 Y-1.0510
G01 X-49.1449 Y-1.0569
G01 X-49.1259 Y-1.0657
G01 X-49.1003 Y-1.0749
G01 X-49.0740 Y-1.0815
G01 X-49.0533 Y-1.0847
G01 X-49.0440 Y-1.0857
G01 X-49.0200 Y-1.0868
G01 X-48.7200 Y-1.0868
G01 X-48.6929 Y-1.0855
G01 X-48.6660 Y-1.0815
G01 X-48.6396 Y-1.0749
G01 X-48.6199 Y-1.0680
G01 X-48.6112 Y-1.0645
G01 X-48.5895 Y-1.0541
G01 X-48.5662 Y-1.0401
G01 X-48.5493 Y-1.0278
G01 X-48.5397 Y-1.0199
G01 X-48.5265 Y-1.0079
G01 X-48.5200 Y-1.0012
G01 X-48.5060 Y-0.9856
G01 X-48.4898 Y-0.9638
G01 X-48.4759 Y-0.9405
G01 X-48.4668 Y-0.9216
G01 X-48.4620 Y-0.9101
G01 X-48.4542 Y-0.8874
G01 X-48.4485 Y-0.8640
G01 X-48.4453 Y-0.8433
G01 X-48.4443 Y-0.8340
G01 X-48.4432 Y-0.8100
G01 X-48.4432 Y0.4900
G01 X-48.4445 Y0.5171
G01 X-48.4479 Y0.5410
G01 X-48.4499 Y0.5501
G01 X-48.4551 Y0.5704
G01 X-48.4643 Y0.5959
G01 X-48.4744 Y0.6177
G01 X-48.4789 Y0.6259
G01 X-48.4898 Y0.6438
G01 X-48.5022 Y0.6607
G01 X-48.5080 Y0.6680
G01 X-48.5243 Y0.6857
G01 X-48.5420 Y0.7020
G01 X-48.5493 Y0.7078
G01 X-48.5662 Y0.7202
G01 X-48.5868 Y0.7326
G01 X-48.6084 Y0.7432
G01 X-48.6181 Y0.7473
G01 X-48.6181 Y3.1207
G01 X-46.8607 Y4.8781
G01 X-45.7993 Y4.8781
G01 X-44.6769 Y3.7557
G01 X-44.6769 Y3.4814
G01 X-44.6970 Y3.4760
G01 X-44.7797 Y3.4463
G01 X-44.8563 Y3.4102
G01 X-44.8673 Y3.4043
G01 X-44.9399 Y3.3606
G01 X-45.0080 Y3.3103
G01 X-45.0177 Y3.3024
G01 X-45.0758 Y3.2497
G01 X-45.0846 Y3.2409
G01 X-45.1414 Y3.1780
G01 X-45.1920 Y3.1100
G01 X-45.1989 Y3.0997
G01 X-45.2424 Y3.0269
G01 X-45.2787 Y2.9504
G01 X-45.2835 Y2.9389
G01 X-45.3119 Y2.8590
G01 X-45.3333 Y2.7739
G01 X-45.3350 Y2.7647
G01 X-45.3473 Y2.6809
G01 X-45.3516 Y2.5962
G01 X-45.3516 Y2.5838
G01 X-45.3473 Y2.4992
G01 X-45.3350 Y2.4153
G01 X-45.3326 Y2.4031
G01 X-45.3119 Y2.3210
G01 X-45.2835 Y2.2411
G01 X-45.2787 Y2.2297
G01 X-45.2424 Y2.1531
G01 X-45.1989 Y2.0804
G01 X-45.1920 Y2.0700
G01 X-45.1414 Y2.0021
G01 X-45.0846 Y1.9392
G01 X-45.0781 Y1.9325
G01 X-45.0177 Y1.8777
G01 X-45.0080 Y1.8698
G01 X-44.9399 Y1.8194
G01 X-44.8673 Y1.7757
G01 X-44.8563 Y1.7698
G01 X-44.7797 Y1.7338
G01 X-44.6940 Y1.7031
G01 X-44.6119 Y1.6824
G01 X-44.5997 Y1.6800
G01 X-44.5158 Y1.6677
G01 X-44.4312 Y1.6634
G01 X-44.4188 Y1.6634
G01 X-44.3341 Y1.6677
G01 X-44.2503 Y1.6800
G01 X-44.2411 Y1.6817
G01 X-44.1560 Y1.7031
G01 X-44.0761 Y1.7315
G01 X-44.0646 Y1.7363
G01 X-43.9881 Y1.7726
G01 X-43.9153 Y1.8161
G01 X-43.9050 Y1.8230
G01 X-43.8370 Y1.8736
G01 X-43.7741 Y1.9304
G01 X-43.7653 Y1.9392
G01 X-43.7126 Y1.9973
G01 X-43.7047 Y2.0070
G01 X-43.6544 Y2.0751
G01 X-43.6107 Y2.1477
G01 X-43.6048 Y2.1587
G01 X-43.5687 Y2.2353
G01 X-43.5390 Y2.3180
G01 X-43.5336 Y2.3381
G01 X-43.2593 Y2.3381
G01 X-40.1534 Y-0.7678
G01 X-40.1609 Y-0.7804
G01 X-40.1652 Y-0.7887
G01 X-40.1987 Y-0.8596
G01 X-40.2035 Y-0.8711
G01 X-40.2319 Y-0.9510
G01 X-40.2540 Y-1.0392
G01 X-40.2673 Y-1.1291
G01 X-40.2716 Y-1.2138
G01 X-40.2716 Y-1.2262
G01 X-40.2678 Y-1.3046
G01 X-40.2666 Y-1.3170
G01 X-40.2540 Y-1.4008
G01 X-40.2319 Y-1.4890
G01 X-40.2012 Y-1.5747
G01 X-40.1652 Y-1.6513
G01 X-40.1593 Y-1.6623
G01 X-40.1189 Y-1.7296
G01 X-40.1120 Y-1.7400
G01 X-40.0614 Y-1.8079
G01 X-40.0046 Y-1.8708
G01 X-39.9958 Y-1.8796
G01 X-39.9329 Y-1.9364
G01 X-39.8599 Y-1.9906
G01 X-39.7819 Y-2.0374
G01 X-39.6997 Y-2.0762
G01 X-39.6140 Y-2.1069
G01 X-39.5258 Y-2.1290
G01 X-39.4358 Y-2.1423
G01 X-39.3450 Y-2.1468
G01 X-39.2541 Y-2.1423
G01 X-39.1642 Y-2.1290
G01 X-39.0760 Y-2.1069
G01 X-38.9903 Y-2.0762
G01 X-38.9081 Y-2.0374
G01 X-38.8301 Y-1.9906
G01 X-38.7570 Y-1.9364
G01 X-38.6896 Y-1.8753
G01 X-38.6286 Y-1.8079
G01 X-38.5744 Y-1.7349
G01 X-38.5276 Y-1.6569
G01 X-38.4887 Y-1.5747
G01 X-38.4581 Y-1.4890
G01 X-38.4360 Y-1.4008
G01 X-38.4227 Y-1.3108
G01 X-38.4182 Y-1.2200
G01 X-38.4227 Y-1.1291
G01 X-38.4360 Y-1.0392
G01 X-38.4581 Y-0.9510
G01 X-38.4887 Y-0.8653
G01 X-38.5276 Y-0.7831
G01 X-38.5744 Y-0.7051
G01 X-38.6286 Y-0.6320
G01 X-38.6875 Y-0.5669
G01 X-38.6941 Y-0.5603
G01 X-38.7570 Y-0.5036
G01 X-38.8250 Y-0.4530
G01 X-38.8353 Y-0.4461
G01 X-38.9027 Y-0.4057
G01 X-38.9137 Y-0.3998
G01 X-38.9903 Y-0.3637
G01 X-39.0760 Y-0.3331
G01 X-39.1642 Y-0.3110
G01 X-39.2480 Y-0.2984
G01 X-39.2604 Y-0.2972
G01 X-39.3388 Y-0.2933
G01 X-39.3512 Y-0.2933
G01 X-39.4358 Y-0.2977
G01 X-39.5258 Y-0.3110
G01 X-39.6140 Y-0.3331
G01 X-39.6939 Y-0.3615
G01 X-39.7053 Y-0.3663
G01 X-39.7763 Y-0.3998
G01 X-39.7846 Y-0.4041
G01 X-39.7972 Y-0.4116
G01 X-42.9769 Y2.7681
G01 X-42.9928 Y2.7827
G01 X-43.0100 Y2.7958
G01 X-43.0203 Y2.8028
G01 X-43.0363 Y2.8121
G01 X-43.0586 Y2.8227
G01 X-43.0789 Y2.8301
G01 X-43.0879 Y2.8327
G01 X-43.1059 Y2.8370
G01 X-43.1303 Y2.8407
G01 X-43.1550 Y2.8419
G01 X-43.5336 Y2.8419
G01 X-43.5390 Y2.8620
G01 X-43.5687 Y2.9447
G01 X-43.6048 Y3.0213
G01 X-43.6107 Y3.0323
G01 X-43.6544 Y3.1049
G01 X-43.7047 Y3.1731
G01 X-43.7126 Y3.1827
G01 X-43.7696 Y3.2454
G01 X-43.8323 Y3.3024
G01 X-43.8419 Y3.3103
G01 X-43.9101 Y3.3606
G01 X-43.9827 Y3.4043
G01 X-43.9937 Y3.4102
G01 X-44.0703 Y3.4463
G01 X-44.1530 Y3.4760
G01 X-44.1731 Y3.4814
G01 X-44.1731 Y3.8600
G01 X-44.1743 Y3.8847
G01 X-44.1780 Y3.9091
G01 X-44.1823 Y3.9271
G01 X-44.1849 Y3.9361
G01 X-44.1923 Y3.9564
G01 X-44.2029 Y3.9787
G01 X-44.2122 Y3.9947
G01 X-44.2192 Y4.0050
G01 X-44.2323 Y4.0222
G01 X-44.2469 Y4.0381
G01 X-46.7131 Y6.5043
G01 X-46.7131 Y9.1700
G01 X-46.7143 Y9.1947
G01 X-46.7169 Y9.2130
G01 X-46.7186 Y9.2222
G01 X-46.7249 Y9.2461
G01 X-46.7311 Y9.2635
G01 X-46.7348 Y9.2721
G01 X-46.7429 Y9.2887
G01 X-46.7556 Y9.3099
G01 X-46.7703 Y9.3298
G01 X-46.7869 Y9.3481
G01 X-49.0969 Y11.6581
G01 X-49.1128 Y11.6727
G01 X-49.1201 Y11.6785
G01 X-49.1351 Y11.6894
G01 X-49.1563 Y11.7021
G01 X-49.1757 Y11.7115
G01 X-49.1844 Y11.7149
G01 X-49.2019 Y11.7210
G01 X-49.2228 Y11.7264
G01 X-49.2472 Y11.7303
G01 X-49.2719 Y11.7318
G01 X-49.4336 Y11.7319
G01 X-49.4390 Y11.7520
G01 X-49.4687 Y11.8347
G01 X-49.5048 Y11.9113
G01 X-49.5107 Y11.9223
G01 X-49.5544 Y11.9949
G01 X-49.6047 Y12.0631
G01 X-49.6126 Y12.0727
G01 X-49.6653 Y12.1309
G01 X-49.6719 Y12.1375
G01 X-49.7370 Y12.1964
G01 X-49.8050 Y12.2470
G01 X-49.8153 Y12.2539
G01 X-49.8881 Y12.2974
G01 X-49.9646 Y12.3337
G01 X-49.9761 Y12.3385
G01 X-50.0560 Y12.3669
G01 X-50.1381 Y12.3876
G01 X-50.1503 Y12.3901
G01 X-50.2341 Y12.4023
G01 X-50.3219 Y12.4068
G01 X-51.2250 Y12.4068
G01 X-51.3096 Y12.4028
G01 X-51.3220 Y12.4016
G01 X-51.4058 Y12.3890
G01 X-51.4940 Y12.3669
G01 X-51.5797 Y12.3363
G01 X-51.6619 Y12.2974
G01 X-51.7399 Y12.2506
G01 X-51.8080 Y12.2003
G01 X-51.8177 Y12.1924
G01 X-51.8758 Y12.1397
G01 X-51.8846 Y12.1309
G01 X-51.9414 Y12.0680
G01 X-51.9956 Y11.9949
G01 X-52.0424 Y11.9169
G01 X-52.0812 Y11.8347
G01 X-52.1119 Y11.7490
G01 X-52.1326 Y11.6669
G01 X-52.1350 Y11.6547
G01 X-52.1466 Y11.5770
G01 X-52.1478 Y11.5646
G01 X-52.1518 Y11.4800
G01 X-52.1473 Y11.3892
G01 X-52.1340 Y11.2992
G01 X-52.1135 Y11.2170
G01 X-52.1099 Y11.2051
G01 X-52.0835 Y11.1311
G01 X-52.0787 Y11.1197
G01 X-52.0424 Y11.0431
G01 X-51.9956 Y10.9651
G01 X-51.9414 Y10.8921
G01 X-51.8846 Y10.8292
G01 X-51.8758 Y10.8204
G01 X-51.8177 Y10.7677
G01 X-51.8080 Y10.7598
G01 X-51.7399 Y10.7094
G01 X-51.6619 Y10.6626
G01 X-51.5797 Y10.6238
G01 X-51.4999 Y10.5951
G01 X-51.4880 Y10.5915
G01 X-51.4119 Y10.5724
G01 X-51.3997 Y10.5700
G01 X-51.3158 Y10.5577
G01 X-51.2250 Y10.5532
G00 Z2.0000
G00 X-52.3450 Y8.5587
G01 F60.00
G01 Z-0.1000
G01 F120.00
G01 X-52.2649 Y8.3708
G01 X-52.1339 Y8.1789
G01 X-51.9680 Y8.0162
G01 X-51.7735 Y7.8890
G01 X-51.5579 Y7.8022
G01 X-51.3283 Y7.7589
G01 X-51.1559 Y7.7589
G01 X-51.1559 Y8.0132
G01 X-51.2281 Y8.0133
G01 X-51.3127 Y8.0174
G01 X-51.3220 Y8.0184
G01 X-51.3997 Y8.0300
G01 X-51.4088 Y8.0317
G01 X-51.4940 Y8.0531
G01 X-51.5739 Y8.0815
G01 X-51.5853 Y8.0863
G01 X-51.6563 Y8.1198
G01 X-51.6673 Y8.1257
G01 X-51.7399 Y8.1694
G01 X-51.8080 Y8.2198
G01 X-51.8177 Y8.2277
G01 X-51.8758 Y8.2804
G01 X-51.8846 Y8.2892
G01 X-51.9414 Y8.3521
G01 X-51.9956 Y8.4251
G01 X-52.0424 Y8.5031
G01 X-52.0690 Y8.5591
G01 X-52.3447 Y8.5591
G01 X-52.3450 Y8.5587
G00 Z2.0000
G00 X-52.2678 Y6.7809
G01 F60.00
G01 Z-0.1000
G01 F120.00
G01 X-52.0720 Y6.7809
G01 X-52.0364 Y6.9012
G01 X-52.0922 Y7.1078
G01 X-52.2707 Y7.4892
G01 X-52.5184 Y7.8261
G01 X-52.8272 Y8.1082
G01 X-53.1850 Y8.3247
G01 X-53.5781 Y8.4672
G01 X-53.9972 Y8.5311
G01 X-55.4741 Y8.5311
G01 X-55.4741 Y8.2768
G01 X-54.1050 Y8.2768
G01 X-53.9210 Y8.2678
G01 X-53.7388 Y8.2408
G01 X-53.5602 Y8.1960
G01 X-53.3868 Y8.1339
G01 X-53.2203 Y8.0552
G01 X-53.0623 Y7.9605
G01 X-52.9144 Y7.8508
G01 X-52.7779 Y7.7271
G01 X-52.6583 Y7.5954
G01 X-52.6504 Y7.5857
G01 X-52.5445 Y7.4427
G01 X-52.4529 Y7.2901
G01 X-52.4470 Y7.2792
G01 X-52.3736 Y7.1239
G01 X-52.3688 Y7.1124
G01 X-52.3090 Y6.9448
G01 X-52.2678 Y6.7809
G00 Z2.0000
G00 X-52.2678 Y6.0191
G01 F60.00
G01 Z-0.1000
G01 F120.00
G01 X-52.3090 Y5.8552
G01 X-52.3688 Y5.6876
G01 X-52.3736 Y5.6761
G01 X-52.4470 Y5.5209
G01 X-52.4529 Y5.5099
G01 X-52.5445 Y5.3573
G01 X-52.6504 Y5.2143
G01 X-52.6583 Y5.2047
G01 X-52.7779 Y5.0729
G01 X-52.9144 Y4.9492
G01 X-53.0623 Y4.8395
G01 X-53.2203 Y4.7448
G01 X-53.3868 Y4.6661
G01 X-53.5602 Y4.6040
G01 X-53.7388 Y4.5593
G01 X-53.9210 Y4.5322
G01 X-54.1050 Y4.5232
G01 X-55.4741 Y4.5232
G01 X-55.4741 Y4.2689
G01 X-53.9972 Y4.2689
G01 X-53.5781 Y4.3328
G01 X-53.1850 Y4.4753
G01 X-52.8272 Y4.6918
G01 X-52.5184 Y4.9739
G01 X-52.2707 Y5.3108
G01 X-52.0922 Y5.6922
G01 X-52.0364 Y5.8989
G01 X-52.0720 Y6.0191
G01 X-52.2678 Y6.0191
G00 Z2.0000
G00 X-53.0629 Y1.0132
G01 F60.00
G01 Z-0.1000
G01 F120.00
G01 X-53.1265 Y0.9938
G01 X-53.1928 Y0.9584
G01 X-53.2508 Y0.9108
G01 X-53.2984 Y0.8528
G01 X-53.3338 Y0.7866
G01 X-53.3556 Y0.7147
G01 X-53.3641 Y0.6283
G01 X-53.3618 Y0.2315
G01 X-53.3511 Y0.2209
G01 X-53.1068 Y0.2209
G01 X-53.1068 Y0.4900
G01 X-53.1055 Y0.5171
G01 X-53.1025 Y0.5379
G01 X-53.1008 Y0.5471
G01 X-53.0957 Y0.5674
G01 X-53.0929 Y0.5763
G01 X-53.0857 Y0.5959
G01 X-53.0769 Y0.6149
G01 X-53.0726 Y0.6232
G01 X-53.0609 Y0.6427
G01 X-53.0609 Y1.0111
G01 X-53.0629 Y1.0132
G00 Z2.0000
G00 X-52.2991 Y0.6427
G01 F60.00
G01 Z-0.1000
G01 F120.00
G01 X-52.2874 Y0.6232
G01 X-52.2831 Y0.6149
G01 X-52.2743 Y0.5959
G01 X-52.2671 Y0.5763
G01 X-52.2642 Y0.5674
G01 X-52.2592 Y0.5471
G01 X-52.2574 Y0.5379
G01 X-52.2545 Y0.5171
G01 X-52.2532 Y0.4900
G01 X-52.2532 Y0.2209
G01 X-51.8368 Y0.2209
G01 X-51.8368 Y0.4900
G01 X-51.8355 Y0.5171
G01 X-51.8325 Y0.5379
G01 X-51.8308 Y0.5471
G01 X-51.8257 Y0.5674
G01 X-51.8229 Y0.5763
G01 X-51.8157 Y0.5959
G01 X-51.8069 Y0.6149
G01 X-51.8026 Y0.6232
G01 X-51.7909 Y0.6427
G01 X-51.7909 Y1.0111
G01 X-51.7929 Y1.0132
G01 X-51.8565 Y0.9938
G01 X-51.9281 Y0.9556
G01 X-51.9478 Y0.9464
G01 X-51.9683 Y0.9390
G01 X-51.9894 Y0.9333
G01 X-52.0016 Y0.9309
G01 X-52.0201 Y0.9283
G01 X-52.0450 Y0.9271
G01 X-52.0699 Y0.9283
G01 X-52.0884 Y0.9309
G01 X-52.1006 Y0.9333
G01 X-52.1216 Y0.9390
G01 X-52.1421 Y0.9464
G01 X-52.1619 Y0.9556
G01 X-52.2334 Y0.9938
G01 X-52.2971 Y1.0132
G01 X-52.2991 Y1.0111
G01 X-52.2991 Y0.6427
G00 Z2.0000
G00 X-52.2532 Y-0.5409
G01 F60.00
G01 Z-0.1000
G01 F120.00
G01 X-52.2532 Y-0.8100
G01 X-52.2545 Y-0.8371
G01 X-52.2574 Y-0.8579
G01 X-52.2592 Y-0.8670
G01 X-52.2642 Y-0.8874
G01 X-52.2671 Y-0.8962
G01 X-52.2743 Y-0.9159
G01 X-52.2831 Y-0.9349
G01 X-52.2874 Y-0.9432
G01 X-52.2991 Y-0.9627
G01 X-52.2991 Y-1.3311
G01 X-52.2971 Y-1.3331
G01 X-52.2334 Y-1.3138
G01 X-52.1619 Y-1.2756
G01 X-52.1421 Y-1.2664
G01 X-52.1216 Y-1.2590
G01 X-52.1006 Y-1.2533
G01 X-52.0884 Y-1.2509
G01 X-52.0699 Y-1.2483
G01 X-52.0450 Y-1.2471
G01 X-52.0201 Y-1.2483
G01 X-52.0016 Y-1.2509
G01 X-51.9894 Y-1.2533
G01 X-51.9683 Y-1.2590
G01 X-51.9478 Y-1.2664
G01 X-51.9281 Y-1.2756
G01 X-51.8565 Y-1.3138
G01 X-51.7929 Y-1.3331
G01 X-51.7909 Y-1.3311
G01 X-51.7909 Y-0.9627
G01 X-51.8026 Y-0.9432
G01 X-51.8069 Y-0.9349
G01 X-51.8157 Y-0.9159
G01 X-51.8229 Y-0.8962
G01 X-51.8257 Y-0.8874
G01 X-51.8308 Y-0.8670
G01 X-51.8325 Y-0.8579
G01 X-51.8355 Y-0.8371
G01 X-51.8368 Y-0.8100
G01 X-51.8368 Y-0.5409
G01 X-52.2532 Y-0.5409
G00 Z2.0000
G00 X-53.1068 Y-0.5409
G01 F60.00
G01 Z-0.1000
G01 F120.00
G01 X-53.3511 Y-0.5409
G01 X-53.3618 Y-0.5515
G01 X-53.3641 Y-0.9483
G01 X-53.3556 Y-1.0347
G01 X-53.3338 Y-1.1065
G01 X-53.2984 Y-1.1728
G01 X-53.2508 Y-1.2308
G01 X-53.1928 Y-1.2784
G01 X-53.1265 Y-1.3138
G01 X-53.0629 Y-1.3331
G01 X-53.0609 Y-1.3311
G01 X-53.0609 Y-0.9627
G01 X-53.0726 Y-0.9432
G01 X-53.0769 Y-0.9349
G01 X-53.0857 Y-0.9159
G01 X-53.0929 Y-0.8962
G01 X-53.0957 Y-0.8874
G01 X-53.1008 Y-0.8670
G01 X-53.1025 Y-0.8579
G01 X-53.1055 Y-0.8371
G01 X-53.1068 Y-0.8100
G01 X-53.1068 Y-0.5409
G00 Z2.0000
G00 X-50.3919 Y-1.0673
G01 F60.00
G01 Z-0.1000
G01 F120.00
G01 X-50.3917 Y-1.8612
G01 X-50.3906 Y-1.8797
G01 X-50.3876 Y-1.9011
G01 X-50.3827 Y-1.9221
G01 X-50.3801 Y-1.9311
G01 X-50.3727 Y-1.9514
G01 X-50.3635 Y-1.9710
G01 X-50.3590 Y-1.9791
G01 X-50.3476 Y-1.9975
G01 X-50.3347 Y-2.0148
G01 X-50.3181 Y-2.0331
G01 X-48.4131 Y-3.9381
G01 X-48.3948 Y-3.9547
G01 X-48.3749 Y-3.9694
G01 X-48.3537 Y-3.9821
G01 X-48.3371 Y-3.9902
G01 X-48.3285 Y-3.9938
G01 X-48.3081 Y-4.0010
G01 X-48.2841 Y-4.0070
G01 X-48.2597 Y-4.0106
G01 X-48.2350 Y-4.0119
G01 X-42.4930 Y-4.0119
G01 X-44.6031 Y-6.1219
G01 X-44.6177 Y-6.1378
G01 X-44.6308 Y-6.1550
G01 X-44.6377 Y-6.1653
G01 X-44.6471 Y-6.1813
G01 X-44.6577 Y-6.2036
G01 X-44.6651 Y-6.2239
G01 X-44.6677 Y-6.2329
G01 X-44.6720 Y-6.2509
G01 X-44.6756 Y-6.2753
G01 X-44.6769 Y-6.3000
G01 X-44.6769 Y-6.6786
G01 X-44.6970 Y-6.6840
G01 X-44.7768 Y-6.7126
G01 X-44.7853 Y-6.7163
G01 X-44.8619 Y-6.7526
G01 X-44.9399 Y-6.7994
G01 X-45.0080 Y-6.8497
G01 X-45.0177 Y-6.8576
G01 X-45.0758 Y-6.9103
G01 X-45.0846 Y-6.9191
G01 X-45.1414 Y-6.9820
G01 X-45.1920 Y-7.0500
G01 X-45.1989 Y-7.0603
G01 X-45.2424 Y-7.1331
G01 X-45.2787 Y-7.2096
G01 X-45.2824 Y-7.2182
G01 X-45.3119 Y-7.3010
G01 X-45.3326 Y-7.3831
G01 X-45.3350 Y-7.3953
G01 X-45.3473 Y-7.4791
G01 X-45.3516 Y-7.5638
G01 X-45.3516 Y-7.5762
G01 X-45.3473 Y-7.6608
G01 X-45.3350 Y-7.7447
G01 X-45.3326 Y-7.7569
G01 X-45.3119 Y-7.8390
G01 X-45.2835 Y-7.9189
G01 X-45.2787 Y-7.9303
G01 X-45.2424 Y-8.0069
G01 X-45.1989 Y-8.0796
G01 X-45.1920 Y-8.0900
G01 X-45.1414 Y-8.1579
G01 X-45.0846 Y-8.2208
G01 X-45.0758 Y-8.2296
G01 X-45.0129 Y-8.2864
G01 X-44.9450 Y-8.3370
G01 X-44.9346 Y-8.3439
G01 X-44.8619 Y-8.3874
G01 X-44.7853 Y-8.4237
G01 X-44.7739 Y-8.4285
G01 X-44.6940 Y-8.4569
G01 X-44.6119 Y-8.4776
G01 X-44.5997 Y-8.4800
G01 X-44.5158 Y-8.4923
G01 X-44.4312 Y-8.4966
G01 X-44.4188 Y-8.4966
G01 X-44.3341 Y-8.4923
G01 X-44.2472 Y-8.4795
G01 X-44.2381 Y-8.4776
G01 X-44.1560 Y-8.4569
G01 X-44.0761 Y-8.4285
G01 X-44.0646 Y-8.4237
G01 X-43.9937 Y-8.3902
G01 X-43.9827 Y-8.3843
G01 X-43.9101 Y-8.3406
G01 X-43.8370 Y-8.2864
G01 X-43.7696 Y-8.2253
G01 X-43.7086 Y-8.1579
G01 X-43.6544 Y-8.0849
G01 X-43.6107 Y-8.0123
G01 X-43.6048 Y-8.0013
G01 X-43.5713 Y-7.9303
G01 X-43.5665 Y-7.9189
G01 X-43.5381 Y-7.8390
G01 X-43.5160 Y-7.7508
G01 X-43.5027 Y-7.6608
G01 X-43.4982 Y-7.5731
G01 X-43.4983 Y-7.5638
G01 X-43.5027 Y-7.4791
G01 X-43.5149 Y-7.3953
G01 X-43.5174 Y-7.3831
G01 X-43.5364 Y-7.3069
G01 X-43.5400 Y-7.2950
G01 X-43.5687 Y-7.2153
G01 X-43.6076 Y-7.1331
G01 X-43.6544 Y-7.0551
G01 X-43.7047 Y-6.9869
G01 X-43.7126 Y-6.9773
G01 X-43.7653 Y-6.9191
G01 X-43.7741 Y-6.9103
G01 X-43.8370 Y-6.8536
G01 X-43.9101 Y-6.7994
G01 X-43.9881 Y-6.7526
G01 X-44.0646 Y-6.7163
G01 X-44.0761 Y-6.7115
G01 X-44.1500 Y-6.6850
G01 X-44.1589 Y-6.6822
G01 X-44.1731 Y-6.6786
G01 X-44.1731 Y-6.4043
G01 X-41.7807 Y-4.0119
G01 X-40.7193 Y-4.0119
G01 X-39.5969 Y-5.1343
G01 X-39.5969 Y-5.3286
G01 X-39.6170 Y-5.3340
G01 X-39.6968 Y-5.3626
G01 X-39.7053 Y-5.3663
G01 X-39.7819 Y-5.4026
G01 X-39.8599 Y-5.4494
G01 X-39.9280 Y-5.4997
G01 X-39.9353 Y-5.5056
G01 X-40.0003 Y-5.5646
G01 X-40.0573 Y-5.6273
G01 X-40.0652 Y-5.6369
G01 X-40.1156 Y-5.7051
G01 X-40.1593 Y-5.7777
G01 X-40.1652 Y-5.7887
G01 X-40.1987 Y-5.8596
G01 X-40.2035 Y-5.8711
G01 X-40.2299 Y-5.9450
G01 X-40.2335 Y-5.9569
G01 X-40.2540 Y-6.0392
G01 X-40.2666 Y-6.1230
G01 X-40.2678 Y-6.1354
G01 X-40.2718 Y-6.2200
G01 X-40.2673 Y-6.3108
G01 X-40.2540 Y-6.4008
G01 X-40.2319 Y-6.4890
G01 X-40.2012 Y-6.5747
G01 X-40.1624 Y-6.6569
G01 X-40.1156 Y-6.7349
G01 X-40.0614 Y-6.8079
G01 X-40.0003 Y-6.8753
G01 X-39.9329 Y-6.9364
G01 X-39.8599 Y-6.9906
G01 X-39.7873 Y-7.0343
G01 X-39.7763 Y-7.0402
G01 X-39.6997 Y-7.0762
G01 X-39.6199 Y-7.1049
G01 X-39.6080 Y-7.1085
G01 X-39.5319 Y-7.1276
G01 X-39.5197 Y-7.1300
G01 X-39.4358 Y-7.1423
G01 X-39.3512 Y-7.1466
G01 X-39.3388 Y-7.1466
G01 X-39.2541 Y-7.1423
G01 X-39.1642 Y-7.1290
G01 X-39.0760 Y-7.1069
G01 X-38.9961 Y-7.0785
G01 X-38.9846 Y-7.0737
G01 X-38.9081 Y-7.0374
G01 X-38.8301 Y-6.9906
G01 X-38.7570 Y-6.9364
G01 X-38.6941 Y-6.8796
G01 X-38.6853 Y-6.8708
G01 X-38.6326 Y-6.8127
G01 X-38.6247 Y-6.8030
G01 X-38.5744 Y-6.7349
G01 X-38.5307 Y-6.6623
G01 X-38.5248 Y-6.6513
G01 X-38.4887 Y-6.5747
G01 X-38.4581 Y-6.4890
G01 X-38.4360 Y-6.4008
G01 X-38.4227 Y-6.3108
G01 X-38.4182 Y-6.2200
G01 X-38.4227 Y-6.1291
G01 X-38.4360 Y-6.0392
G01 X-38.4564 Y-5.9569
G01 X-38.4590 Y-5.9480
G01 X-38.4865 Y-5.8711
G01 X-38.4913 Y-5.8596
G01 X-38.5276 Y-5.7831
G01 X-38.5711 Y-5.7103
G01 X-38.5780 Y-5.7000
G01 X-38.6286 Y-5.6320
G01 X-38.6896 Y-5.5646
G01 X-38.7523 Y-5.5076
G01 X-38.7619 Y-5.4997
G01 X-38.8301 Y-5.4494
G01 X-38.9027 Y-5.4057
G01 X-38.9137 Y-5.3998
G01 X-38.9903 Y-5.3637
G01 X-39.0730 Y-5.3340
G01 X-39.0931 Y-5.3286
G01 X-39.0931 Y-5.0300
G01 X-39.0939 Y-5.0115
G01 X-39.0947 Y-5.0022
G01 X-39.0980 Y-4.9809
G01 X-39.1023 Y-4.9629
G01 X-39.1049 Y-4.9539
G01 X-39.1123 Y-4.9336
G01 X-39.1214 Y-4.9140
G01 X-39.1259 Y-4.9058
G01 X-39.1356 Y-4.8901
G01 X-39.1484 Y-4.8726
G01 X-39.1544 Y-4.8655
G01 X-39.1669 Y-4.8519
G01 X-40.0069 Y-4.0119
G01 X-31.7250 Y-4.0119
G01 X-31.7003 Y-4.0106
G01 X-31.6759 Y-4.0070
G01 X-31.6519 Y-4.0010
G01 X-31.6315 Y-3.9938
G01 X-31.6229 Y-3.9902
G01 X-31.6063 Y-3.9821
G01 X-31.5851 Y-3.9694
G01 X-31.5652 Y-3.9547
G01 X-31.5469 Y-3.9381
G01 X-24.0007 Y3.6081
G01 X-20.9760 Y3.6081
G01 X-20.9652 Y3.5790
G01 X-20.9388 Y3.5230
G01 X-20.9345 Y3.5147
G01 X-20.8993 Y3.4562
G01 X-20.8588 Y3.4014
G01 X-20.8527 Y3.3942
G01 X-20.8132 Y3.3506
G01 X-20.8044 Y3.3418
G01 X-20.7561 Y3.2982
G01 X-20.7039 Y3.2593
G01 X-20.6962 Y3.2540
G01 X-20.6376 Y3.2190
G01 X-20.5731 Y3.1885
G01 X-20.5060 Y3.1645
G01 X-20.4429 Y3.1485
G01 X-20.4306 Y3.1461
G01 X-20.3724 Y3.1375
G01 X-20.3600 Y3.1363
G01 X-20.2950 Y3.1332
G01 X-20.2237 Y3.1367
G01 X-20.1532 Y3.1472
G01 X-20.0840 Y3.1645
G01 X-20.0169 Y3.1885
G01 X-19.9524 Y3.2190
G01 X-19.8912 Y3.2557
G01 X-19.8339 Y3.2982
G01 X-19.7811 Y3.3461
G01 X-19.7372 Y3.3942
G01 X-19.7293 Y3.4038
G01 X-19.6907 Y3.4562
G01 X-19.6571 Y3.5120
G01 X-19.6512 Y3.5230
G01 X-19.6260 Y3.5762
G01 X-19.6213 Y3.5877
G01 X-19.5995 Y3.6490
G01 X-19.5835 Y3.7121
G01 X-19.5811 Y3.7244
G01 X-19.5717 Y3.7888
G01 X-19.5682 Y3.8600
G01 X-19.5717 Y3.9313
G01 X-19.5816 Y3.9987
G01 X-19.5835 Y4.0079
G01 X-19.5995 Y4.0710
G01 X-19.6213 Y4.1323
G01 X-19.6260 Y4.1438
G01 X-19.6512 Y4.1971
G01 X-19.6571 Y4.2080
G01 X-19.6907 Y4.2638
G01 X-19.7332 Y4.3211
G01 X-19.7811 Y4.3739
G01 X-19.8339 Y4.4218
G01 X-19.8912 Y4.4643
G01 X-19.9470 Y4.4979
G01 X-19.9579 Y4.5038
G01 X-20.0112 Y4.5290
G01 X-20.0227 Y4.5337
G01 X-20.0840 Y4.5555
G01 X-20.1532 Y4.5728
G01 X-20.2237 Y4.5833
G01 X-20.2919 Y4.5868
G01 X-20.3012 Y4.5867
G01 X-20.3600 Y4.5838
G01 X-20.3724 Y4.5826
G01 X-20.4368 Y4.5728
G01 X-20.5060 Y4.5555
G01 X-20.5731 Y4.5315
G01 X-20.6320 Y4.5038
G01 X-20.6430 Y4.4979
G01 X-20.6935 Y4.4677
G01 X-20.7013 Y4.4626
G01 X-20.7561 Y4.4218
G01 X-20.8044 Y4.3782
G01 X-20.8132 Y4.3694
G01 X-20.8527 Y4.3258
G01 X-20.8588 Y4.3187
G01 X-20.8993 Y4.2638
G01 X-20.9345 Y4.2053
G01 X-20.9388 Y4.1971
G01 X-20.9652 Y4.1410
G01 X-20.9760 Y4.1119
G01 X-24.1050 Y4.1119
G01 X-24.1266 Y4.1109
G01 X-24.1359 Y4.1099
G01 X-24.1541 Y4.1070
G01 X-24.1781 Y4.1010
G01 X-24.1985 Y4.0939
G01 X-24.2071 Y4.0902
G01 X-24.2237 Y4.0821
G01 X-24.2397 Y4.0728
G01 X-24.2475 Y4.0677
G01 X-24.2623 Y4.0566
G01 X-24.2695 Y4.0506
G01 X-24.2831 Y4.0381
G01 X-31.8293 Y-3.5081
G01 X-48.1307 Y-3.5081
G01 X-49.8881 Y-1.7507
G01 X-49.8881 Y-1.0673
G01 X-49.8784 Y-1.0632
G01 X-49.8568 Y-1.0526
G01 X-49.8362 Y-1.0401
G01 X-49.8193 Y-1.0278
G01 X-49.8120 Y-1.0220
G01 X-49.7943 Y-1.0057
G01 X-49.7780 Y-0.9880
G01 X-49.7722 Y-0.9807
G01 X-49.7598 Y-0.9638
G01 X-49.7474 Y-0.9432
G01 X-49.7368 Y-0.9216
G01 X-49.7331 Y-0.9130
G01 X-49.7251 Y-0.8903
G01 X-49.7199 Y-0.8701
G01 X-49.7174 Y-0.8579
G01 X-49.7143 Y-0.8340
G01 X-49.7132 Y-0.8100
G01 X-49.7132 Y0.4900
G01 X-49.7145 Y0.5171
G01 X-49.7174 Y0.5379
G01 X-49.7199 Y0.5501
G01 X-49.7242 Y0.5674
G01 X-49.7271 Y0.5763
G01 X-49.7343 Y0.5959
G01 X-49.7459 Y0.6205
G01 X-49.7598 Y0.6438
G01 X-49.7722 Y0.6607
G01 X-49.7801 Y0.6703
G01 X-49.7921 Y0.6835
G01 X-49.7988 Y0.6900
G01 X-49.8144 Y0.7040
G01 X-49.8362 Y0.7202
G01 X-49.8595 Y0.7341
G01 X-49.8784 Y0.7432
G01 X-49.8899 Y0.7480
G01 X-49.9067 Y0.7540
G01 X-49.9156 Y0.7566
G01 X-49.9360 Y0.7615
G01 X-49.9567 Y0.7647
G01 X-49.9660 Y0.7657
G01 X-49.9869 Y0.7668
G01 X-50.2900 Y0.7668
G01 X-50.3140 Y0.7657
G01 X-50.3233 Y0.7647
G01 X-50.3440 Y0.7615
G01 X-50.3703 Y0.7549
G01 X-50.3901 Y0.7480
G01 X-50.3988 Y0.7445
G01 X-50.4177 Y0.7356
G01 X-50.4259 Y0.7311
G01 X-50.4438 Y0.7202
G01 X-50.4607 Y0.7078
G01 X-50.4680 Y0.7020
G01 X-50.4857 Y0.6857
G01 X-50.5020 Y0.6680
G01 X-50.5078 Y0.6607
G01 X-50.5201 Y0.6438
G01 X-50.5310 Y0.6259
G01 X-50.5355 Y0.6177
G01 X-50.5457 Y0.5959
G01 X-50.5539 Y0.5733
G01 X-50.5565 Y0.5644
G01 X-50.5615 Y0.5440
G01 X-50.5647 Y0.5233
G01 X-50.5657 Y0.5140
G01 X-50.5668 Y0.4900
G01 X-50.5668 Y-0.8100
G01 X-50.5655 Y-0.8371
G01 X-50.5620 Y-0.8609
G01 X-50.5601 Y-0.8701
G01 X-50.5549 Y-0.8903
G01 X-50.5457 Y-0.9159
G01 X-50.5355 Y-0.9377
G01 X-50.5310 Y-0.9459
G01 X-50.5201 Y-0.9638
G01 X-50.5078 Y-0.9807
G01 X-50.5020 Y-0.9880
G01 X-50.4857 Y-1.0057
G01 X-50.4680 Y-1.0220
G01 X-50.4607 Y-1.0278
G01 X-50.4438 Y-1.0401
G01 X-50.4232 Y-1.0526
G01 X-50.4016 Y-1.0632
G01 X-50.3919 Y-1.0673
G00 Z2.0000
G00 X-49.9691 Y-6.4341
G01 F60.00
G01 Z-0.1000
G01 F120.00
G01 X-49.9900 Y-6.4332
G01 X-50.2962 Y-6.4333
G01 X-50.3171 Y-6.4345
G01 X-50.3440 Y-6.4385
G01 X-50.3703 Y-6.4451
G01 X-50.3930 Y-6.4531
G01 X-50.4016 Y-6.4568
G01 X-50.4205 Y-6.4659
G01 X-50.4412 Y-6.4781
G01 X-50.4489 Y-6.4834
G01 X-50.4656 Y-6.4960
G01 X-50.4812 Y-6.5100
G01 X-50.4879 Y-6.5165
G01 X-50.5040 Y-6.5344
G01 X-50.5184 Y-6.5536
G01 X-50.5235 Y-6.5615
G01 X-50.5341 Y-6.5795
G01 X-50.5432 Y-6.5984
G01 X-50.5469 Y-6.6070
G01 X-50.5539 Y-6.6267
G01 X-50.5565 Y-6.6356
G01 X-50.5615 Y-6.6560
G01 X-50.5655 Y-6.6829
G01 X-50.5668 Y-6.7100
G01 X-50.5668 Y-8.0100
G01 X-50.5659 Y-8.0309
G01 X-50.5651 Y-8.0402
G01 X-50.5615 Y-8.0640
G01 X-50.5557 Y-8.0874
G01 X-50.5480 Y-8.1101
G01 X-50.5432 Y-8.1216
G01 X-50.5341 Y-8.1405
G01 X-50.5201 Y-8.1638
G01 X-50.5040 Y-8.1856
G01 X-50.4900 Y-8.2012
G01 X-50.4835 Y-8.2079
G01 X-50.4703 Y-8.2199
G01 X-50.4607 Y-8.2278
G01 X-50.4438 Y-8.2401
G01 X-50.4205 Y-8.2541
G01 X-50.3988 Y-8.2645
G01 X-50.3901 Y-8.2680
G01 X-50.3703 Y-8.2749
G01 X-50.3440 Y-8.2815
G01 X-50.3171 Y-8.2855
G01 X-50.2931 Y-8.2867
G01 X-49.9869 Y-8.2867
G01 X-49.9629 Y-8.2855
G01 X-49.9390 Y-8.2820
G01 X-49.9156 Y-8.2765
G01 X-49.9037 Y-8.2729
G01 X-49.8841 Y-8.2657
G01 X-49.8651 Y-8.2569
G01 X-49.8568 Y-8.2526
G01 X-49.8362 Y-8.2401
G01 X-49.8168 Y-8.2259
G01 X-49.8097 Y-8.2199
G01 X-49.7943 Y-8.2057
G01 X-49.7801 Y-8.1903
G01 X-49.7741 Y-8.1832
G01 X-49.7598 Y-8.1638
G01 X-49.7474 Y-8.1432
G01 X-49.7431 Y-8.1349
G01 X-49.7343 Y-8.1159
G01 X-49.7271 Y-8.0962
G01 X-49.7242 Y-8.0874
G01 X-49.7185 Y-8.0640
G01 X-49.7145 Y-8.0371
G01 X-49.7132 Y-8.0100
G01 X-49.7132 Y-6.7100
G01 X-49.7145 Y-6.6829
G01 X-49.7174 Y-6.6621
G01 X-49.7199 Y-6.6499
G01 X-49.7242 Y-6.6326
G01 X-49.7271 Y-6.6237
G01 X-49.7355 Y-6.6012
G01 X-49.7474 Y-6.5768
G01 X-49.7598 Y-6.5562
G01 X-49.7760 Y-6.5344
G01 X-49.7943 Y-6.5143
G01 X-49.8097 Y-6.5001
G01 X-49.8193 Y-6.4922
G01 X-49.8336 Y-6.4816
G01 X-49.8415 Y-6.4765
G01 X-49.8595 Y-6.4659
G01 X-49.8841 Y-6.4543
G01 X-49.9096 Y-6.4451
G01 X-49.9299 Y-6.4399
G01 X-49.9390 Y-6.4379
G01 X-49.9567 Y-6.4353
G01 X-49.9691 Y-6.4341
G00 Z2.0000
G00 X-51.2391 Y-6.4341
G01 F60.00
G01 Z-0.1000
G01 F120.00
G01 X-51.2600 Y-6.4332
G01 X-51.5662 Y-6.4333
G01 X-51.5871 Y-6.4345
G01 X-51.6140 Y-6.4385
G01 X-51.6403 Y-6.4451
G01 X-51.6630 Y-6.4531
G01 X-51.6716 Y-6.4568
G01 X-51.6905 Y-6.4659
G01 X-51.7112 Y-6.4781
G01 X-51.7189 Y-6.4834
G01 X-51.7356 Y-6.4960
G01 X-51.7512 Y-6.5100
G01 X-51.7579 Y-6.5165
G01 X-51.7740 Y-6.5344
G01 X-51.7884 Y-6.5536
G01 X-51.7935 Y-6.5615
G01 X-51.8041 Y-6.5795
G01 X-51.8132 Y-6.5984
G01 X-51.8169 Y-6.6070
G01 X-51.8239 Y-6.6267
G01 X-51.8265 Y-6.6356
G01 X-51.8315 Y-6.6560
G01 X-51.8355 Y-6.6829
G01 X-51.8368 Y-6.7100
G01 X-51.8368 Y-8.0100
G01 X-51.8359 Y-8.0309
G01 X-51.8351 Y-8.0402
G01 X-51.8315 Y-8.0640
G01 X-51.8257 Y-8.0874
G01 X-51.8180 Y-8.1101
G01 X-51.8132 Y-8.1216
G01 X-51.8041 Y-8.1405
G01 X-51.7901 Y-8.1638
G01 X-51.7740 Y-8.1856
G01 X-51.7600 Y-8.2012
G01 X-51.7535 Y-8.2079
G01 X-51.7403 Y-8.2199
G01 X-51.7307 Y-8.2278
G01 X-51.7138 Y-8.2401
G01 X-51.6905 Y-8.2541
G01 X-51.6688 Y-8.2645
G01 X-51.6601 Y-8.2680
G01 X-51.6403 Y-8.2749
G01 X-51.6140 Y-8.2815
G01 X-51.5871 Y-8.2855
G01 X-51.5631 Y-8.2867
G01 X-51.2569 Y-8.2867
G01 X-51.2329 Y-8.2855
G01 X-51.2090 Y-8.2820
G01 X-51.1856 Y-8.2765
G01 X-51.1737 Y-8.2729
G01 X-51.1541 Y-8.2657
G01 X-51.1351 Y-8.2569
G01 X-51.1268 Y-8.2526
G01 X-51.1062 Y-8.2401
G01 X-51.0868 Y-8.2259
G01 X-51.0797 Y-8.2199
G01 X-51.0643 Y-8.2057
G01 X-51.0501 Y-8.1903
G01 X-51.0441 Y-8.1832
G01 X-51.0298 Y-8.1638
G01 X-51.0174 Y-8.1432
G01 X-51.0131 Y-8.1349
G01 X-51.0043 Y-8.1159
G01 X-50.9971 Y-8.0962
G01 X-50.9942 Y-8.0874
G01 X-50.9885 Y-8.0640
G01 X-50.9845 Y-8.0371
G01 X-50.9832 Y-8.0100
G01 X-50.9832 Y-6.7100
G01 X-50.9845 Y-6.6829
G01 X-50.9874 Y-6.6621
G01 X-50.9899 Y-6.6499
G01 X-50.9942 Y-6.6326
G01 X-50.9971 Y-6.6237
G01 X-51.0055 Y-6.6012
G01 X-51.0174 Y-6.5768
G01 X-51.0298 Y-6.5562
G01 X-51.0460 Y-6.5344
G01 X-51.0643 Y-6.5143
G01 X-51.0797 Y-6.5001
G01 X-51.0893 Y-6.4922
G01 X-51.1036 Y-6.4816
G01 X-51.1115 Y-6.4765
G01 X-51.1295 Y-6.4659
G01 X-51.1541 Y-6.4543
G01 X-51.1796 Y-6.4451
G01 X-51.1999 Y-6.4399
G01 X-51.2090 Y-6.4379
G01 X-51.2267 Y-6.4353
G01 X-51.2391 Y-6.4341
G00 Z2.0000
G00 X-52.5091 Y-6.4341
G01 F60.00
G01 Z-0.1000
G01 F120.00
G01 X-52.5300 Y-6.4332
G01 X-52.8362 Y-6.4333
G01 X-52.8571 Y-6.4345
G01 X-52.8840 Y-6.4385
G01 X-52.9103 Y-6.4451
G01 X-52.9330 Y-6.4531
G01 X-52.9416 Y-6.4568
G01 X-52.9605 Y-6.4659
G01 X-52.9812 Y-6.4781
G01 X-52.9889 Y-6.4834
G01 X-53.0056 Y-6.4960
G01 X-53.0212 Y-6.5100
G01 X-53.0279 Y-6.5165
G01 X-53.0440 Y-6.5344
G01 X-53.0584 Y-6.5536
G01 X-53.0635 Y-6.5615
G01 X-53.0741 Y-6.5795
G01 X-53.0832 Y-6.5984
G01 X-53.0869 Y-6.6070
G01 X-53.0939 Y-6.6267
G01 X-53.0965 Y-6.6356
G01 X-53.1015 Y-6.6560
G01 X-53.1055 Y-6.6829
G01 X-53.1068 Y-6.7100
G01 X-53.1068 Y-8.0100
G01 X-53.1059 Y-8.0309
G01 X-53.1051 Y-8.0402
G01 X-53.1015 Y-8.0640
G01 X-53.0957 Y-8.0874
G01 X-53.0880 Y-8.1101
G01 X-53.0832 Y-8.1216
G01 X-53.0741 Y-8.1405
G01 X-53.0601 Y-8.1638
G01 X-53.0440 Y-8.1856
G01 X-53.0300 Y-8.2012
G01 X-53.0235 Y-8.2079
G01 X-53.0103 Y-8.2199
G01 X-53.0007 Y-8.2278
G01 X-52.9838 Y-8.2401
G01 X-52.9605 Y-8.2541
G01 X-52.9388 Y-8.2645
G01 X-52.9301 Y-8.2680
G01 X-52.9103 Y-8.2749
G01 X-52.8840 Y-8.2815
G01 X-52.8571 Y-8.2855
G01 X-52.8331 Y-8.2867
G01 X-52.5269 Y-8.2867
G01 X-52.5029 Y-8.2855
G01 X-52.4790 Y-8.2820
G01 X-52.4556 Y-8.2765
G01 X-52.4437 Y-8.2729
G01 X-52.4241 Y-8.2657
G01 X-52.4051 Y-8.2569
G01 X-52.3968 Y-8.2526
G01 X-52.3762 Y-8.2401
G01 X-52.3568 Y-8.2259
G01 X-52.3497 Y-8.2199
G01 X-52.3343 Y-8.2057
G01 X-52.3201 Y-8.1903
G01 X-52.3141 Y-8.1832
G01 X-52.2998 Y-8.1638
G01 X-52.2874 Y-8.1432
G01 X-52.2831 Y-8.1349
G01 X-52.2743 Y-8.1159
G01 X-52.2671 Y-8.0962
G01 X-52.2642 Y-8.0874
G01 X-52.2585 Y-8.0640
G01 X-52.2545 Y-8.0371
G01 X-52.2532 Y-8.0100
G01 X-52.2532 Y-6.7100
G01 X-52.2545 Y-6.6829
G01 X-52.2574 Y-6.6621
G01 X-52.2599 Y-6.6499
G01 X-52.2642 Y-6.6326
G01 X-52.2671 Y-6.6237
G01 X-52.2755 Y-6.6012
G01 X-52.2874 Y-6.5768
G01 X-52.2998 Y-6.5562
G01 X-52.3160 Y-6.5344
G01 X-52.3343 Y-6.5143
G01 X-52.3497 Y-6.5001
G01 X-52.3593 Y-6.4922
G01 X-52.3736 Y-6.4816
G01 X-52.3815 Y-6.4765
G01 X-52.3995 Y-6.4659
G01 X-52.4241 Y-6.4543
G01 X-52.4496 Y-6.4451
G01 X-52.4699 Y-6.4399
G01 X-52.4790 Y-6.4379
G01 X-52.4967 Y-6.4353
G01 X-52.5091 Y-6.4341
G00 Z2.0000
G00 X-58.6582 Y-6.9600
G01 F60.00
G01 Z-0.1000
G01 F120.00
G01 X-58.6585 Y-6.9693
G01 X-58.6601 Y-6.9817
G01 X-58.6620 Y-6.9908
G01 X-58.6646 Y-6.9998
G01 X-58.6691 Y-7.0114
G01 X-58.6732 Y-7.0198
G01 X-58.6796 Y-7.0304
G01 X-58.6850 Y-7.0380
G01 X-58.6910 Y-7.0451
G01 X-58.6998 Y-7.0539
G01 X-58.7070 Y-7.0599
G01 X-58.7172 Y-7.0671
G01 X-58.7252 Y-7.0718
G01 X-58.7365 Y-7.0771
G01 X-58.7452 Y-7.0804
G01 X-58.7542 Y-7.0830
G01 X-58.7695 Y-7.0858
G01 X-58.7850 Y-7.0868
G01 X-59.1791 Y-7.0868
G01 X-59.1791 Y-7.3311
G01 X-59.1684 Y-7.3418
G01 X-58.7967 Y-7.3441
G01 X-58.7103 Y-7.3356
G01 X-58.6384 Y-7.3138
G01 X-58.5722 Y-7.2784
G01 X-58.5142 Y-7.2308
G01 X-58.4666 Y-7.1728
G01 X-58.4312 Y-7.1065
G01 X-58.4094 Y-7.0347
G01 X-58.4009 Y-6.9484
G01 X-58.4031 Y-6.6391
G01 X-58.4139 Y-6.6284
G01 X-58.6582 Y-6.6284
G01 X-58.6582 Y-6.9600
G00 Z2.0000
G00 X-60.2429 Y-2.7850
G01 F60.00
G01 Z-0.1000
G01 F120.00
G01 X-60.2524 Y-2.7768
G01 X-60.2610 Y-2.7678
G01 X-60.2687 Y-2.7580
G01 X-60.2753 Y-2.7475
G01 X-60.2821 Y-2.7335
G01 X-60.2863 Y-2.7218
G01 X-60.2894 Y-2.7097
G01 X-60.2912 Y-2.6974
G01 X-60.2918 Y-2.6850
G01 X-60.2918 Y-2.2350
G01 X-60.2914 Y-2.2257
G01 X-60.2904 Y-2.2164
G01 X-60.2887 Y-2.2072
G01 X-60.2863 Y-2.1982
G01 X-60.2821 Y-2.1865
G01 X-60.2782 Y-2.1780
G01 X-60.2737 Y-2.1698
G01 X-60.2687 Y-2.1620
G01 X-60.2610 Y-2.1522
G01 X-60.2546 Y-2.1453
G01 X-60.2478 Y-2.1390
G01 X-60.2380 Y-2.1313
G01 X-60.2302 Y-2.1262
G01 X-60.2220 Y-2.1217
G01 X-60.2135 Y-2.1178
G01 X-60.2048 Y-2.1146
G01 X-60.1950 Y-2.1118
G01 X-60.3412 Y-2.1116
G01 X-60.3536 Y-2.1104
G01 X-60.3628 Y-2.1087
G01 X-60.3748 Y-2.1054
G01 X-60.3864 Y-2.1009
G01 X-60.3948 Y-2.0968
G01 X-60.4028 Y-2.0921
G01 X-60.4154 Y-2.0830
G01 X-60.4224 Y-2.0768
G01 X-60.4289 Y-2.0701
G01 X-60.4387 Y-2.0580
G01 X-60.4468 Y-2.0448
G01 X-60.4509 Y-2.0364
G01 X-60.4544 Y-2.0277
G01 X-60.4587 Y-2.0128
G01 X-60.4612 Y-1.9974
G01 X-60.4618 Y-1.9850
G01 X-60.4618 Y-0.5600
G01 X-60.4608 Y-0.5445
G01 X-60.4587 Y-0.5322
G01 X-60.4563 Y-0.5232
G01 X-60.4533 Y-0.5144
G01 X-60.4496 Y-0.5058
G01 X-60.4453 Y-0.4975
G01 X-60.4404 Y-0.4895
G01 X-60.4349 Y-0.4820
G01 X-60.4289 Y-0.4748
G01 X-60.4224 Y-0.4682
G01 X-60.4130 Y-0.4600
G01 X-60.4054 Y-0.4546
G01 X-60.3975 Y-0.4497
G01 X-60.3892 Y-0.4454
G01 X-60.3806 Y-0.4417
G01 X-60.3718 Y-0.4386
G01 X-60.3628 Y-0.4363
G01 X-60.3505 Y-0.4341
G01 X-60.3350 Y-0.4332
G01 X-59.9409 Y-0.4332
G01 X-59.9409 Y-0.1889
G01 X-59.9516 Y-0.1782
G01 X-60.3233 Y-0.1759
G01 X-60.4097 Y-0.1844
G01 X-60.4815 Y-0.2062
G01 X-60.5478 Y-0.2416
G01 X-60.6058 Y-0.2892
G01 X-60.6534 Y-0.3472
G01 X-60.6712 Y-0.3804
G01 X-60.6825 Y-0.3990
G01 X-60.6973 Y-0.4190
G01 X-60.7141 Y-0.4375
G01 X-60.7325 Y-0.4542
G01 X-60.7525 Y-0.4691
G01 X-60.7739 Y-0.4819
G01 X-60.7964 Y-0.4925
G01 X-60.8199 Y-0.5009
G01 X-60.8380 Y-0.5056
G01 X-60.8471 Y-0.5075
G01 X-60.8687 Y-0.5106
G01 X-60.8936 Y-0.5118
G01 X-61.0118 Y-0.5118
G01 X-61.0305 Y-0.5109
G01 X-61.0398 Y-0.5099
G01 X-61.0583 Y-0.5070
G01 X-61.0764 Y-0.5026
G01 X-61.0854 Y-0.5000
G01 X-61.1059 Y-0.4925
G01 X-61.1228 Y-0.4847
G01 X-61.1311 Y-0.4804
G01 X-61.1498 Y-0.4691
G01 X-61.1649 Y-0.4581
G01 X-61.1722 Y-0.4522
G01 X-61.1882 Y-0.4375
G01 X-61.2030 Y-0.4214
G01 X-61.2088 Y-0.4141
G01 X-61.2198 Y-0.3990
G01 X-61.2296 Y-0.3831
G01 X-61.2341 Y-0.3749
G01 X-61.2433 Y-0.3551
G01 X-61.2497 Y-0.3376
G01 X-61.2525 Y-0.3287
G01 X-61.2577 Y-0.3075
G01 X-61.2606 Y-0.2890
G01 X-61.2616 Y-0.2798
G01 X-61.2626 Y-0.2580
G01 X-61.2616 Y-0.2362
G01 X-61.2606 Y-0.2269
G01 X-61.2577 Y-0.2085
G01 X-61.2517 Y-0.1843
G01 X-61.2444 Y-0.1637
G01 X-61.2408 Y-0.1551
G01 X-61.2326 Y-0.1383
G01 X-61.2231 Y-0.1222
G01 X-61.2181 Y-0.1144
G01 X-61.2069 Y-0.0994
G01 X-61.1904 Y-0.0807
G01 X-61.1033 Y0.0065
G01 X-61.1009 Y0.4283
G01 X-61.1094 Y0.5147
G01 X-61.1312 Y0.5866
G01 X-61.1666 Y0.6528
G01 X-61.2142 Y0.7108
G01 X-61.2722 Y0.7584
G01 X-61.3384 Y0.7938
G01 X-61.4103 Y0.8156
G01 X-61.4964 Y0.8241
G01 X-61.7432 Y0.8220
G01 X-61.7541 Y0.8111
G01 X-61.7541 Y0.5668
G01 X-61.4819 Y0.5668
G01 X-61.4664 Y0.5654
G01 X-61.4542 Y0.5630
G01 X-61.4452 Y0.5604
G01 X-61.4365 Y0.5572
G01 X-61.4280 Y0.5533
G01 X-61.4198 Y0.5488
G01 X-61.4120 Y0.5437
G01 X-61.4045 Y0.5380
G01 X-61.3932 Y0.5274
G01 X-61.3870 Y0.5205
G01 X-61.3813 Y0.5130
G01 X-61.3762 Y0.5052
G01 X-61.3717 Y0.4970
G01 X-61.3678 Y0.4885
G01 X-61.3646 Y0.4798
G01 X-61.3606 Y0.4647
G01 X-61.3588 Y0.4524
G01 X-61.3582 Y0.4400
G01 X-61.3582 Y-1.2100
G01 X-61.3585 Y-1.2193
G01 X-61.3596 Y-1.2286
G01 X-61.3613 Y-1.2378
G01 X-61.3646 Y-1.2498
G01 X-61.3678 Y-1.2585
G01 X-61.3717 Y-1.2670
G01 X-61.3779 Y-1.2778
G01 X-61.3831 Y-1.2855
G01 X-61.3890 Y-1.2928
G01 X-61.3953 Y-1.2996
G01 X-61.4022 Y-1.3060
G01 X-61.4120 Y-1.3137
G01 X-61.4198 Y-1.3187
G01 X-61.4280 Y-1.3232
G01 X-61.4365 Y-1.3271
G01 X-61.4452 Y-1.3304
G01 X-61.4542 Y-1.3330
G01 X-61.4633 Y-1.3349
G01 X-61.4726 Y-1.3362
G01 X-61.4819 Y-1.3367
G01 X-61.7541 Y-1.3368
G01 X-61.7541 Y-1.5832
G01 X-61.1850 Y-1.5832
G01 X-61.1695 Y-1.5841
G01 X-61.1542 Y-1.5870
G01 X-61.1452 Y-1.5896
G01 X-61.1365 Y-1.5928
G01 X-61.1280 Y-1.5967
G01 X-61.1198 Y-1.6012
G01 X-61.1070 Y-1.6100
G01 X-61.0998 Y-1.6160
G01 X-61.0932 Y-1.6226
G01 X-61.0870 Y-1.6295
G01 X-61.0813 Y-1.6370
G01 X-61.0732 Y-1.6502
G01 X-61.0691 Y-1.6586
G01 X-61.0656 Y-1.6673
G01 X-61.0628 Y-1.6762
G01 X-61.0601 Y-1.6883
G01 X-61.0585 Y-1.7007
G01 X-61.0582 Y-1.7100
G01 X-61.0582 Y-3.5100
G01 X-61.0585 Y-3.5193
G01 X-61.0601 Y-3.5317
G01 X-61.0620 Y-3.5408
G01 X-61.0656 Y-3.5527
G01 X-61.0704 Y-3.5642
G01 X-61.0762 Y-3.5752
G01 X-61.0831 Y-3.5855
G01 X-61.0890 Y-3.5928
G01 X-61.0953 Y-3.5996
G01 X-61.1045 Y-3.6080
G01 X-61.1120 Y-3.6137
G01 X-61.1225 Y-3.6203
G01 X-61.1308 Y-3.6246
G01 X-61.1423 Y-3.6294
G01 X-61.1542 Y-3.6330
G01 X-61.1633 Y-3.6349
G01 X-61.1757 Y-3.6364
G01 X-61.1850 Y-3.6368
G01 X-61.7541 Y-3.6368
G01 X-61.7541 Y-3.8811
G01 X-61.7436 Y-3.8916
G01 X-61.1969 Y-3.8941
G01 X-61.1103 Y-3.8856
G01 X-61.0384 Y-3.8638
G01 X-60.9722 Y-3.8284
G01 X-60.9587 Y-3.8174
G01 X-60.9437 Y-3.8062
G01 X-60.9224 Y-3.7932
G01 X-60.9142 Y-3.7889
G01 X-60.8972 Y-3.7810
G01 X-60.8767 Y-3.7735
G01 X-60.8677 Y-3.7709
G01 X-60.8496 Y-3.7666
G01 X-60.8280 Y-3.7632
G01 X-60.8187 Y-3.7624
G01 X-60.8001 Y-3.7617
G01 X-60.7814 Y-3.7624
G01 X-60.7721 Y-3.7632
G01 X-60.7536 Y-3.7660
G01 X-60.7445 Y-3.7679
G01 X-60.7264 Y-3.7726
G01 X-60.7029 Y-3.7810
G01 X-60.6804 Y-3.7917
G01 X-60.6590 Y-3.8045
G01 X-60.6390 Y-3.8193
G01 X-60.6205 Y-3.8360
G01 X-60.6038 Y-3.8545
G01 X-60.5890 Y-3.8745
G01 X-60.5762 Y-3.8959
G01 X-60.5655 Y-3.9184
G01 X-60.5571 Y-3.9418
G01 X-60.5517 Y-3.9630
G01 X-60.5500 Y-3.9721
G01 X-60.5474 Y-3.9907
G01 X-60.5403 Y-4.0632
G01 X-60.5393 Y-4.0850
G01 X-60.5406 Y-4.1099
G01 X-60.5492 Y-4.1975
G01 X-60.5492 Y-4.3020
G01 X-60.5504 Y-4.3268
G01 X-60.5541 Y-4.3515
G01 X-60.5585 Y-4.3697
G01 X-60.5611 Y-4.3786
G01 X-60.5685 Y-4.3991
G01 X-60.5792 Y-4.4216
G01 X-60.5886 Y-4.4377
G01 X-60.5937 Y-4.4456
G01 X-60.6088 Y-4.4654
G01 X-60.6214 Y-4.4792
G01 X-60.6281 Y-4.4858
G01 X-60.6420 Y-4.4982
G01 X-60.6569 Y-4.5095
G01 X-60.6646 Y-4.5147
G01 X-60.6780 Y-4.5228
G01 X-60.6862 Y-4.5273
G01 X-60.7030 Y-4.5353
G01 X-60.7117 Y-4.5387
G01 X-60.7294 Y-4.5449
G01 X-60.7535 Y-4.5509
G01 X-60.7720 Y-4.5538
G01 X-60.7813 Y-4.5549
G01 X-60.8031 Y-4.5558
G01 X-60.8279 Y-4.5546
G01 X-60.8465 Y-4.5520
G01 X-60.8556 Y-4.5503
G01 X-60.8768 Y-4.5449
G01 X-60.9002 Y-4.5365
G01 X-60.9227 Y-4.5259
G01 X-60.9388 Y-4.5164
G01 X-60.9467 Y-4.5113
G01 X-60.9617 Y-4.5002
G01 X-60.9722 Y-4.4916
G01 X-61.0384 Y-4.4562
G01 X-61.1103 Y-4.4344
G01 X-61.1969 Y-4.4258
G01 X-61.7436 Y-4.4284
G01 X-61.7541 Y-4.4389
G01 X-61.7541 Y-4.6832
G01 X-61.1850 Y-4.6832
G01 X-61.1757 Y-4.6835
G01 X-61.1633 Y-4.6851
G01 X-61.1512 Y-4.6878
G01 X-61.1423 Y-4.6906
G01 X-61.1308 Y-4.6954
G01 X-61.1225 Y-4.6997
G01 X-61.1120 Y-4.7063
G01 X-61.1045 Y-4.7120
G01 X-61.0976 Y-4.7182
G01 X-61.0890 Y-4.7272
G01 X-61.0813 Y-4.7370
G01 X-61.0747 Y-4.7475
G01 X-61.0691 Y-4.7586
G01 X-61.0656 Y-4.7673
G01 X-61.0620 Y-4.7792
G01 X-61.0601 Y-4.7883
G01 X-61.0588 Y-4.7976
G01 X-61.0582 Y-4.8100
G01 X-61.0582 Y-5.8131
G01 X-61.0588 Y-5.8224
G01 X-61.0601 Y-5.8317
G01 X-61.0636 Y-5.8468
G01 X-61.0667 Y-5.8556
G01 X-61.0704 Y-5.8642
G01 X-61.0779 Y-5.8778
G01 X-61.0870 Y-5.8904
G01 X-61.0976 Y-5.9018
G01 X-61.1095 Y-5.9118
G01 X-61.1198 Y-5.9187
G01 X-61.1336 Y-5.9259
G01 X-61.1452 Y-5.9304
G01 X-61.1572 Y-5.9337
G01 X-61.1726 Y-5.9362
G01 X-61.1850 Y-5.9368
G01 X-61.7541 Y-5.9368
G01 X-61.7541 Y-6.1832
G01 X-61.4819 Y-6.1832
G01 X-61.4726 Y-6.1838
G01 X-61.4633 Y-6.1851
G01 X-61.4542 Y-6.1870
G01 X-61.4452 Y-6.1896
G01 X-61.4365 Y-6.1928
G01 X-61.4280 Y-6.1967
G01 X-61.4198 Y-6.2012
G01 X-61.4120 Y-6.2063
G01 X-61.4045 Y-6.2120
G01 X-61.3976 Y-6.2182
G01 X-61.3890 Y-6.2272
G01 X-61.3831 Y-6.2345
G01 X-61.3779 Y-6.2422
G01 X-61.3717 Y-6.2530
G01 X-61.3678 Y-6.2615
G01 X-61.3646 Y-6.2702
G01 X-61.3620 Y-6.2792
G01 X-61.3601 Y-6.2883
G01 X-61.3585 Y-6.3007
G01 X-61.3582 Y-6.3100
G01 X-61.3582 Y-7.9600
G01 X-61.3588 Y-7.9724
G01 X-61.3606 Y-7.9847
G01 X-61.3646 Y-7.9998
G01 X-61.3678 Y-8.0085
G01 X-61.3717 Y-8.0170
G01 X-61.3762 Y-8.0252
G01 X-61.3813 Y-8.0330
G01 X-61.3870 Y-8.0404
G01 X-61.3932 Y-8.0474
G01 X-61.3998 Y-8.0539
G01 X-61.4070 Y-8.0599
G01 X-61.4198 Y-8.0687
G01 X-61.4280 Y-8.0732
G01 X-61.4365 Y-8.0771
G01 X-61.4452 Y-8.0804
G01 X-61.4542 Y-8.0830
G01 X-61.4695 Y-8.0858
G01 X-61.4819 Y-8.0867
G01 X-61.7541 Y-8.0868
G01 X-61.7541 Y-8.3311
G01 X-61.7432 Y-8.3420
G01 X-61.4964 Y-8.3441
G01 X-61.4103 Y-8.3356
G01 X-61.3384 Y-8.3138
G01 X-61.2722 Y-8.2784
G01 X-61.2142 Y-8.2308
G01 X-61.1666 Y-8.1728
G01 X-61.1312 Y-8.1065
G01 X-61.1094 Y-8.0347
G01 X-61.1009 Y-7.9482
G01 X-61.1033 Y-7.5265
G01 X-61.1904 Y-7.4393
G01 X-61.2069 Y-7.4206
G01 X-61.2181 Y-7.4056
G01 X-61.2231 Y-7.3978
G01 X-61.2326 Y-7.3817
G01 X-61.2408 Y-7.3648
G01 X-61.2444 Y-7.3562
G01 X-61.2517 Y-7.3357
G01 X-61.2577 Y-7.3115
G01 X-61.2606 Y-7.2930
G01 X-61.2616 Y-7.2838
G01 X-61.2626 Y-7.2620
G01 X-61.2616 Y-7.2402
G01 X-61.2606 Y-7.2309
G01 X-61.2577 Y-7.2125
G01 X-61.2525 Y-7.1913
G01 X-61.2497 Y-7.1824
G01 X-61.2433 Y-7.1648
G01 X-61.2341 Y-7.1451
G01 X-61.2296 Y-7.1369
G01 X-61.2198 Y-7.1210
G01 X-61.2088 Y-7.1058
G01 X-61.2030 Y-7.0986
G01 X-61.1882 Y-7.0825
G01 X-61.1722 Y-7.0678
G01 X-61.1649 Y-7.0619
G01 X-61.1498 Y-7.0509
G01 X-61.1311 Y-7.0396
G01 X-61.1228 Y-7.0353
G01 X-61.1059 Y-7.0275
G01 X-61.0854 Y-7.0200
G01 X-61.0764 Y-7.0174
G01 X-61.0583 Y-7.0130
G01 X-61.0398 Y-7.0101
G01 X-61.0305 Y-7.0091
G01 X-61.0118 Y-7.0082
G01 X-60.8936 Y-7.0081
G01 X-60.8687 Y-7.0093
G01 X-60.8441 Y-7.0130
G01 X-60.8259 Y-7.0174
G01 X-60.8169 Y-7.0200
G01 X-60.7964 Y-7.0275
G01 X-60.7739 Y-7.0381
G01 X-60.7525 Y-7.0509
G01 X-60.7325 Y-7.0657
G01 X-60.7141 Y-7.0825
G01 X-60.6973 Y-7.1009
G01 X-60.6825 Y-7.1209
G01 X-60.6712 Y-7.1396
G01 X-60.6534 Y-7.1728
G01 X-60.6058 Y-7.2308
G01 X-60.5478 Y-7.2784
G01 X-60.4815 Y-7.3138
G01 X-60.4097 Y-7.3356
G01 X-60.3233 Y-7.3441
G01 X-59.9516 Y-7.3418
G01 X-59.9409 Y-7.3311
G01 X-59.9409 Y-7.0868
G01 X-60.3350 Y-7.0868
G01 X-60.3474 Y-7.0862
G01 X-60.3628 Y-7.0837
G01 X-60.3718 Y-7.0813
G01 X-60.3806 Y-7.0783
G01 X-60.3892 Y-7.0746
G01 X-60.4002 Y-7.0687
G01 X-60.4080 Y-7.0637
G01 X-60.4154 Y-7.0580
G01 X-60.4224 Y-7.0518
G01 X-60.4310 Y-7.0428
G01 X-60.4368 Y-7.0355
G01 X-60.4421 Y-7.0278
G01 X-60.4482 Y-7.0170
G01 X-60.4521 Y-7.0085
G01 X-60.4563 Y-6.9968
G01 X-60.4587 Y-6.9878
G01 X-60.4604 Y-6.9786
G01 X-60.4614 Y-6.9693
G01 X-60.4618 Y-6.9600
G01 X-60.4618 Y-5.5350
G01 X-60.4614 Y-5.5257
G01 X-60.4599 Y-5.5133
G01 X-60.4563 Y-5.4982
G01 X-60.4533 Y-5.4894
G01 X-60.4496 Y-5.4808
G01 X-60.4421 Y-5.4671
G01 X-60.4330 Y-5.4545
G01 X-60.4224 Y-5.4432
G01 X-60.4154 Y-5.4370
G01 X-60.4080 Y-5.4313
G01 X-60.3948 Y-5.4232
G01 X-60.3806 Y-5.4167
G01 X-60.3718 Y-5.4136
G01 X-60.3628 Y-5.4113
G01 X-60.3505 Y-5.4091
G01 X-60.3412 Y-5.4083
G01 X-60.1950 Y-5.4082
G01 X-60.2048 Y-5.4054
G01 X-60.2135 Y-5.4021
G01 X-60.2248 Y-5.3968
G01 X-60.2328 Y-5.3921
G01 X-60.2430 Y-5.3849
G01 X-60.2501 Y-5.3789
G01 X-60.2568 Y-5.3724
G01 X-60.2630 Y-5.3654
G01 X-60.2687 Y-5.3580
G01 X-60.2753 Y-5.3475
G01 X-60.2796 Y-5.3392
G01 X-60.2833 Y-5.3306
G01 X-60.2872 Y-5.3188
G01 X-60.2894 Y-5.3097
G01 X-60.2912 Y-5.2974
G01 X-60.2917 Y-5.2881
G01 X-60.2918 Y-4.8350
G01 X-60.2912 Y-4.8226
G01 X-60.2894 Y-4.8103
G01 X-60.2863 Y-4.7982
G01 X-60.2821 Y-4.7865
G01 X-60.2753 Y-4.7725
G01 X-60.2687 Y-4.7620
G01 X-60.2610 Y-4.7522
G01 X-60.2524 Y-4.7432
G01 X-60.2429 Y-4.7350
G01 X-60.2524 Y-4.7268
G01 X-60.2610 Y-4.7178
G01 X-60.2687 Y-4.7080
G01 X-60.2753 Y-4.6975
G01 X-60.2821 Y-4.6835
G01 X-60.2863 Y-4.6718
G01 X-60.2894 Y-4.6597
G01 X-60.2912 Y-4.6474
G01 X-60.2918 Y-4.6350
G01 X-60.2916 Y-4.1788
G01 X-60.2904 Y-4.1664
G01 X-60.2872 Y-4.1512
G01 X-60.2821 Y-4.1365
G01 X-60.2768 Y-4.1252
G01 X-60.2687 Y-4.1120
G01 X-60.2610 Y-4.1022
G01 X-60.2524 Y-4.0932
G01 X-60.2429 Y-4.0850
G01 X-60.2524 Y-4.0768
G01 X-60.2610 Y-4.0678
G01 X-60.2687 Y-4.0580
G01 X-60.2753 Y-4.0475
G01 X-60.2821 Y-4.0335
G01 X-60.2863 Y-4.0218
G01 X-60.2894 Y-4.0097
G01 X-60.2912 Y-3.9974
G01 X-60.2918 Y-3.9850
G01 X-60.2917 Y-3.5319
G01 X-60.2904 Y-3.5164
G01 X-60.2880 Y-3.5042
G01 X-60.2833 Y-3.4894
G01 X-60.2782 Y-3.4780
G01 X-60.2721 Y-3.4671
G01 X-60.2630 Y-3.4545
G01 X-60.2524 Y-3.4432
G01 X-60.2429 Y-3.4350
G01 X-60.2524 Y-3.4268
G01 X-60.2610 Y-3.4178
G01 X-60.2687 Y-3.4080
G01 X-60.2753 Y-3.3975
G01 X-60.2821 Y-3.3835
G01 X-60.2863 Y-3.3718
G01 X-60.2894 Y-3.3597
G01 X-60.2912 Y-3.3474
G01 X-60.2918 Y-3.3350
G01 X-60.2917 Y-2.8819
G01 X-60.2904 Y-2.8664
G01 X-60.2880 Y-2.8542
G01 X-60.2833 Y-2.8394
G01 X-60.2782 Y-2.8280
G01 X-60.2721 Y-2.8171
G01 X-60.2630 Y-2.8045
G01 X-60.2524 Y-2.7932
G01 X-60.2429 Y-2.7850
G00 Z2.0000
G00 X-58.7637 Y-2.1100
G01 F60.00
G01 Z-0.1000
G01 F120.00
G01 X-58.7542 Y-2.1080
G01 X-58.7452 Y-2.1054
G01 X-58.7365 Y-2.1021
G01 X-58.7280 Y-2.0982
G01 X-58.7198 Y-2.0937
G01 X-58.7120 Y-2.0887
G01 X-58.7045 Y-2.0830
G01 X-58.6976 Y-2.0768
G01 X-58.6910 Y-2.0701
G01 X-58.6850 Y-2.0630
G01 X-58.6796 Y-2.0554
G01 X-58.6747 Y-2.0475
G01 X-58.6704 Y-2.0392
G01 X-58.6667 Y-2.0306
G01 X-58.6636 Y-2.0218
G01 X-58.6613 Y-2.0128
G01 X-58.6591 Y-2.0005
G01 X-58.6582 Y-1.9850
G01 X-58.6582 Y-1.6534
G01 X-58.4139 Y-1.6534
G01 X-58.4031 Y-1.6641
G01 X-58.4028 Y-1.7049
G01 X-58.4014 Y-1.7266
G01 X-58.3976 Y-1.7511
G01 X-58.3932 Y-1.7691
G01 X-58.3905 Y-1.7780
G01 X-58.3830 Y-1.7984
G01 X-58.3723 Y-1.8208
G01 X-58.3594 Y-1.8420
G01 X-58.3446 Y-1.8618
G01 X-58.3278 Y-1.8801
G01 X-58.3094 Y-1.8967
G01 X-58.2894 Y-1.9114
G01 X-58.2735 Y-1.9211
G01 X-58.2654 Y-1.9256
G01 X-58.2457 Y-1.9347
G01 X-58.2282 Y-1.9411
G01 X-58.2194 Y-1.9439
G01 X-58.1952 Y-1.9496
G01 X-58.1768 Y-1.9523
G01 X-58.1676 Y-1.9531
G01 X-58.1490 Y-1.9539
G01 X-53.0073 Y-1.9539
G01 X-52.9855 Y-1.9529
G01 X-52.9700 Y-1.9514
G01 X-52.8708 Y-1.9612
G01 X-52.7754 Y-1.9901
G01 X-52.6874 Y-2.0371
G01 X-52.6104 Y-2.1004
G01 X-52.6004 Y-2.1124
G01 X-52.5857 Y-2.1285
G01 X-48.5385 Y-6.1757
G01 X-48.5224 Y-6.1904
G01 X-48.5100 Y-6.2006
G01 X-48.4961 Y-6.2158
G01 X-48.4776 Y-6.2326
G01 X-48.4627 Y-6.2438
G01 X-48.4550 Y-6.2491
G01 X-48.4390 Y-6.2587
G01 X-48.4239 Y-6.2668
G01 X-48.3431 Y-6.3331
G01 X-48.2768 Y-6.4139
G01 X-48.2276 Y-6.5060
G01 X-48.1972 Y-6.6060
G01 X-48.1858 Y-6.7225
G01 X-48.1858 Y-7.9975
G01 X-48.1972 Y-8.1140
G01 X-48.2276 Y-8.2140
G01 X-48.2768 Y-8.3061
G01 X-48.3431 Y-8.3869
G01 X-48.4239 Y-8.4531
G01 X-48.4911 Y-8.4891
G01 X-48.5099 Y-8.5002
G01 X-48.5176 Y-8.5055
G01 X-48.5325 Y-8.5167
G01 X-48.5488 Y-8.5313
G01 X-48.5553 Y-8.5380
G01 X-48.5677 Y-8.5519
G01 X-48.5826 Y-8.5719
G01 X-48.5954 Y-8.5933
G01 X-48.6048 Y-8.6130
G01 X-48.6125 Y-8.6334
G01 X-48.6161 Y-8.6453
G01 X-48.6205 Y-8.6635
G01 X-48.6241 Y-8.6881
G01 X-48.6253 Y-8.7130
G01 X-48.6246 Y-8.7317
G01 X-48.6234 Y-8.7440
G01 X-48.6198 Y-8.7656
G01 X-48.6144 Y-8.7867
G01 X-48.6072 Y-8.8072
G01 X-48.5982 Y-8.8271
G01 X-48.5923 Y-8.8381
G01 X-48.5826 Y-8.8540
G01 X-48.5677 Y-8.8740
G01 X-48.5510 Y-8.8925
G01 X-48.5372 Y-8.9052
G01 X-48.5301 Y-8.9112
G01 X-48.5176 Y-8.9205
G01 X-48.5073 Y-8.9274
G01 X-48.4884 Y-8.9383
G01 X-48.4657 Y-8.9487
G01 X-48.4452 Y-8.9559
G01 X-48.4210 Y-8.9620
G01 X-48.3964 Y-8.9656
G01 X-48.3746 Y-8.9668
G01 X-45.2942 Y-8.9668
G01 X-45.2755 Y-8.9659
G01 X-45.2662 Y-8.9649
G01 X-45.2478 Y-8.9620
G01 X-45.2266 Y-8.9568
G01 X-45.2177 Y-8.9540
G01 X-45.2001 Y-8.9475
G01 X-45.1804 Y-8.9383
G01 X-45.1722 Y-8.9338
G01 X-45.1563 Y-8.9241
G01 X-45.1412 Y-8.9131
G01 X-45.1339 Y-8.9072
G01 X-45.1178 Y-8.8925
G01 X-45.1031 Y-8.8764
G01 X-45.0972 Y-8.8691
G01 X-45.0862 Y-8.8540
G01 X-45.0765 Y-8.8381
G01 X-45.0720 Y-8.8299
G01 X-45.0628 Y-8.8101
G01 X-45.0563 Y-8.7926
G01 X-45.0535 Y-8.7837
G01 X-45.0483 Y-8.7625
G01 X-45.0454 Y-8.7440
G01 X-45.0444 Y-8.7348
G01 X-45.0435 Y-8.7161
G01 X-45.0436 Y-8.7068
G01 X-45.0447 Y-8.6881
G01 X-45.0477 Y-8.6665
G01 X-45.0497 Y-8.6574
G01 X-45.0544 Y-8.6393
G01 X-45.0605 Y-8.6216
G01 X-45.0640 Y-8.6130
G01 X-45.0734 Y-8.5933
G01 X-45.0845 Y-8.5746
G01 X-45.0898 Y-8.5669
G01 X-45.1011 Y-8.5519
G01 X-45.1178 Y-8.5335
G01 X-45.1315 Y-8.5208
G01 X-45.1387 Y-8.5148
G01 X-45.1537 Y-8.5037
G01 X-45.1779 Y-8.4874
G01 X-45.3424 Y-8.3229
G01 X-45.4717 Y-8.1295
G01 X-45.5607 Y-7.9145
G01 X-45.6061 Y-7.6863
G01 X-45.6061 Y-7.4537
G01 X-45.5607 Y-7.2255
G01 X-45.4717 Y-7.0105
G01 X-45.3424 Y-6.8171
G01 X-45.1779 Y-6.6525
G01 X-45.0439 Y-6.5630
G01 X-45.0264 Y-6.5501
G01 X-45.0192 Y-6.5441
G01 X-45.0055 Y-6.5315
G01 X-44.9887 Y-6.5130
G01 X-44.9739 Y-6.4930
G01 X-44.9642 Y-6.4770
G01 X-44.9597 Y-6.4689
G01 X-44.9517 Y-6.4520
G01 X-44.9430 Y-6.4286
G01 X-44.9366 Y-6.4045
G01 X-44.9331 Y-6.3830
G01 X-44.9321 Y-6.3737
G01 X-44.9313 Y-6.3582
G01 X-44.9311 Y-6.3373
G01 X-44.9321 Y-6.3155
G01 X-44.9336 Y-6.3000
G01 X-44.9238 Y-6.2008
G01 X-44.8949 Y-6.1054
G01 X-44.8479 Y-6.0174
G01 X-44.7846 Y-5.9404
G01 X-44.7726 Y-5.9304
G01 X-44.7565 Y-5.9157
G01 X-43.5403 Y-4.6995
G01 X-43.5236 Y-4.6810
G01 X-43.5105 Y-4.6636
G01 X-43.4990 Y-4.6451
G01 X-43.4931 Y-4.6341
G01 X-43.4853 Y-4.6171
G01 X-43.4769 Y-4.5937
G01 X-43.4708 Y-4.5695
G01 X-43.4675 Y-4.5480
G01 X-43.4661 Y-4.5262
G01 X-43.4661 Y-4.5138
G01 X-43.4671 Y-4.4951
G01 X-43.4708 Y-4.4705
G01 X-43.4769 Y-4.4463
G01 X-43.4830 Y-4.4286
G01 X-43.4878 Y-4.4171
G01 X-43.4974 Y-4.3976
G01 X-43.5087 Y-4.3789
G01 X-43.5216 Y-4.3614
G01 X-43.5276 Y-4.3542
G01 X-43.5403 Y-4.3405
G01 X-43.5587 Y-4.3237
G01 X-43.5737 Y-4.3125
G01 X-43.5814 Y-4.3072
G01 X-43.5974 Y-4.2976
G01 X-43.6057 Y-4.2933
G01 X-43.6226 Y-4.2854
G01 X-43.6402 Y-4.2790
G01 X-43.6491 Y-4.2762
G01 X-43.6642 Y-4.2724
G01 X-43.6733 Y-4.2704
G01 X-43.6918 Y-4.2677
G01 X-43.7167 Y-4.2662
G01 X-48.1977 Y-4.2661
G01 X-48.2194 Y-4.2671
G01 X-48.2350 Y-4.2686
G01 X-48.3342 Y-4.2588
G01 X-48.4296 Y-4.2299
G01 X-48.5175 Y-4.1829
G01 X-48.5946 Y-4.1196
G01 X-48.6046 Y-4.1076
G01 X-48.6193 Y-4.0915
G01 X-50.4715 Y-2.2393
G01 X-50.4876 Y-2.2246
G01 X-50.4996 Y-2.2146
G01 X-50.5629 Y-2.1375
G01 X-50.6099 Y-2.0496
G01 X-50.6388 Y-1.9542
G01 X-50.6486 Y-1.8550
G01 X-50.6471 Y-1.8394
G01 X-50.6461 Y-1.8177
G01 X-50.6461 Y-1.5599
G01 X-50.6469 Y-1.5412
G01 X-50.6477 Y-1.5319
G01 X-50.6510 Y-1.5103
G01 X-50.6554 Y-1.4922
G01 X-50.6590 Y-1.4803
G01 X-50.6667 Y-1.4598
G01 X-50.6761 Y-1.4402
G01 X-50.6872 Y-1.4214
G01 X-50.6999 Y-1.4037
G01 X-50.7078 Y-1.3941
G01 X-50.7205 Y-1.3803
G01 X-50.7389 Y-1.3636
G01 X-50.7589 Y-1.3488
G01 X-50.7749 Y-1.3390
G01 X-50.7859 Y-1.3332
G01 X-50.8057 Y-1.3242
G01 X-50.8263 Y-1.3169
G01 X-50.8505 Y-1.3109
G01 X-50.8751 Y-1.3072
G01 X-50.8938 Y-1.3061
G01 X-50.9062 Y-1.3061
G01 X-50.9280 Y-1.3076
G01 X-50.9495 Y-1.3109
G01 X-50.9677 Y-1.3153
G01 X-51.0271 Y-1.3331
G01 X-51.0291 Y-1.3311
G01 X-51.0291 Y-0.9627
G01 X-51.0159 Y-0.9405
G01 X-51.0068 Y-0.9216
G01 X-51.0031 Y-0.9130
G01 X-50.9951 Y-0.8903
G01 X-50.9885 Y-0.8640
G01 X-50.9853 Y-0.8433
G01 X-50.9843 Y-0.8340
G01 X-50.9832 Y-0.8100
G01 X-50.9832 Y0.4931
G01 X-50.9845 Y0.5171
G01 X-50.9874 Y0.5379
G01 X-50.9892 Y0.5471
G01 X-50.9951 Y0.5704
G01 X-51.0031 Y0.5930
G01 X-51.0068 Y0.6016
G01 X-51.0159 Y0.6205
G01 X-51.0291 Y0.6427
G01 X-51.0291 Y1.0111
G01 X-51.0271 Y1.0132
G01 X-50.9634 Y0.9938
G01 X-50.8972 Y0.9584
G01 X-50.8821 Y0.9462
G01 X-50.8644 Y0.9335
G01 X-50.8456 Y0.9224
G01 X-50.8288 Y0.9143
G01 X-50.8202 Y0.9106
G01 X-50.7996 Y0.9033
G01 X-50.7754 Y0.8973
G01 X-50.7508 Y0.8936
G01 X-50.7259 Y0.8924
G01 X-50.7010 Y0.8936
G01 X-50.6764 Y0.8973
G01 X-50.6522 Y0.9034
G01 X-50.6346 Y0.9095
G01 X-50.6259 Y0.9130
G01 X-50.6090 Y0.9210
G01 X-50.4940 Y0.9824
G01 X-50.3940 Y1.0128
G01 X-50.2775 Y1.0242
G01 X-50.0025 Y1.0242
G01 X-49.8860 Y1.0128
G01 X-49.7860 Y0.9824
G01 X-49.7469 Y0.9616
G01 X-49.7328 Y0.9549
G01 X-49.7242 Y0.9512
G01 X-49.7037 Y0.9439
G01 X-49.6795 Y0.9379
G01 X-49.6610 Y0.9350
G01 X-49.6487 Y0.9338
G01 X-49.6269 Y0.9330
G01 X-49.6020 Y0.9346
G01 X-49.5835 Y0.9373
G01 X-49.5744 Y0.9392
G01 X-49.5593 Y0.9431
G01 X-49.5504 Y0.9459
G01 X-49.5328 Y0.9523
G01 X-49.5159 Y0.9602
G01 X-49.5076 Y0.9645
G01 X-49.4916 Y0.9741
G01 X-49.4714 Y0.9887
G01 X-49.4642 Y0.9947
G01 X-49.4505 Y1.0074
G01 X-49.4337 Y1.0258
G01 X-49.4189 Y1.0458
G01 X-49.4076 Y1.0645
G01 X-49.3980 Y1.0840
G01 X-49.3932 Y1.0955
G01 X-49.3871 Y1.1132
G01 X-49.3810 Y1.1373
G01 X-49.3773 Y1.1620
G01 X-49.3763 Y1.1806
G01 X-49.3761 Y3.1877
G01 X-49.3771 Y3.2095
G01 X-49.3786 Y3.2250
G01 X-49.3688 Y3.3242
G01 X-49.3399 Y3.4196
G01 X-49.2929 Y3.5076
G01 X-49.2296 Y3.5846
G01 X-49.2176 Y3.5946
G01 X-49.2015 Y3.6093
G01 X-47.3493 Y5.4615
G01 X-47.3346 Y5.4776
G01 X-47.3246 Y5.4896
G01 X-47.2367 Y5.5618
G01 X-47.2228 Y5.5742
G01 X-47.2161 Y5.5807
G01 X-47.2015 Y5.5970
G01 X-47.1867 Y5.6170
G01 X-47.1739 Y5.6383
G01 X-47.1658 Y5.6552
G01 X-47.1621 Y5.6637
G01 X-47.1568 Y5.6784
G01 X-47.1532 Y5.6903
G01 X-47.1482 Y5.7115
G01 X-47.1449 Y5.7362
G01 X-47.1439 Y5.7580
G01 X-47.1447 Y5.7767
G01 X-47.1455 Y5.7860
G01 X-47.1488 Y5.8075
G01 X-47.1548 Y5.8317
G01 X-47.1610 Y5.8493
G01 X-47.1658 Y5.8608
G01 X-47.1754 Y5.8804
G01 X-47.1885 Y5.9016
G01 X-47.1996 Y5.9166
G01 X-47.2056 Y5.9238
G01 X-47.2183 Y5.9375
G01 X-47.2965 Y6.0157
G01 X-47.3126 Y6.0304
G01 X-47.3246 Y6.0404
G01 X-47.3879 Y6.1175
G01 X-47.4349 Y6.2054
G01 X-47.4638 Y6.3008
G01 X-47.4736 Y6.4000
G01 X-47.4721 Y6.4156
G01 X-47.4711 Y6.4373
G01 X-47.4711 Y8.8552
G01 X-47.4723 Y8.8801
G01 X-47.4760 Y8.9047
G01 X-47.4821 Y8.9289
G01 X-47.4904 Y8.9524
G01 X-47.5011 Y8.9749
G01 X-47.5139 Y8.9962
G01 X-47.5287 Y9.0163
G01 X-47.5455 Y9.0347
G01 X-49.1395 Y10.6287
G01 X-49.1580 Y10.6455
G01 X-49.1754 Y10.6585
G01 X-49.1939 Y10.6700
G01 X-49.2049 Y10.6759
G01 X-49.2219 Y10.6838
G01 X-49.2453 Y10.6922
G01 X-49.2664 Y10.6976
G01 X-49.2756 Y10.6993
G01 X-49.2941 Y10.7019
G01 X-49.3159 Y10.7031
G01 X-49.3377 Y10.7023
G01 X-49.3501 Y10.7011
G01 X-49.3685 Y10.6982
G01 X-49.3897 Y10.6930
G01 X-49.3986 Y10.6902
G01 X-49.4190 Y10.6825
G01 X-49.4387 Y10.6731
G01 X-49.4548 Y10.6636
G01 X-49.4626 Y10.6585
G01 X-49.4801 Y10.6455
G01 X-49.6656 Y10.4932
G01 X-49.7714 Y10.4366
G01 X-49.7876 Y10.4271
G01 X-49.7954 Y10.4220
G01 X-49.8105 Y10.4108
G01 X-49.8177 Y10.4047
G01 X-49.8315 Y10.3920
G01 X-49.8483 Y10.3734
G01 X-49.8631 Y10.3533
G01 X-49.8760 Y10.3318
G01 X-49.8866 Y10.3091
G01 X-49.8949 Y10.2855
G01 X-49.9009 Y10.2612
G01 X-49.9045 Y10.2364
G01 X-49.9056 Y10.2146
G01 X-49.9054 Y10.2052
G01 X-49.9042 Y10.1864
G01 X-49.9004 Y10.1617
G01 X-49.8942 Y10.1375
G01 X-49.8856 Y10.1139
G01 X-49.8747 Y10.0914
G01 X-49.8617 Y10.0700
G01 X-49.8466 Y10.0500
G01 X-49.8318 Y10.0339
G01 X-49.8251 Y10.0274
G01 X-49.8109 Y10.0150
G01 X-49.7933 Y10.0020
G01 X-49.5820 Y9.8638
G01 X-49.4161 Y9.7011
G01 X-49.2850 Y9.5092
G01 X-49.2050 Y9.3213
G01 X-49.2053 Y9.3209
G01 X-49.4810 Y9.3209
G01 X-49.5076 Y9.3769
G01 X-49.5527 Y9.4523
G01 X-49.5580 Y9.4600
G01 X-49.6047 Y9.5231
G01 X-49.6106 Y9.5303
G01 X-49.6696 Y9.5954
G01 X-49.7323 Y9.6524
G01 X-49.7419 Y9.6603
G01 X-49.8050 Y9.7070
G01 X-49.8127 Y9.7123
G01 X-49.8881 Y9.7574
G01 X-49.9646 Y9.7937
G01 X-49.9761 Y9.7985
G01 X-50.0560 Y9.8269
G01 X-50.1442 Y9.8490
G01 X-50.2280 Y9.8616
G01 X-50.2404 Y9.8628
G01 X-50.3250 Y9.8668
G01 X-51.2281 Y9.8668
G01 X-51.3096 Y9.8628
G01 X-51.3220 Y9.8616
G01 X-51.4058 Y9.8490
G01 X-51.4910 Y9.8278
G01 X-51.4999 Y9.8250
G01 X-51.5797 Y9.7963
G01 X-51.6619 Y9.7574
G01 X-51.7399 Y9.7106
G01 X-51.8080 Y9.6603
G01 X-51.8153 Y9.6544
G01 X-51.8803 Y9.5954
G01 X-51.9373 Y9.5327
G01 X-51.9452 Y9.5231
G01 X-51.9920 Y9.4600
G01 X-51.9989 Y9.4497
G01 X-52.0424 Y9.3769
G01 X-52.0690 Y9.3209
G01 X-52.3447 Y9.3209
G01 X-52.3450 Y9.3213
G01 X-52.2649 Y9.5092
G01 X-52.1339 Y9.7011
G01 X-51.9680 Y9.8638
G01 X-51.7567 Y10.0020
G01 X-51.7391 Y10.0150
G01 X-51.7249 Y10.0274
G01 X-51.7181 Y10.0339
G01 X-51.7034 Y10.0500
G01 X-51.6883 Y10.0700
G01 X-51.6753 Y10.0914
G01 X-51.6644 Y10.1139
G01 X-51.6558 Y10.1375
G01 X-51.6496 Y10.1617
G01 X-51.6458 Y10.1864
G01 X-51.6446 Y10.2052
G01 X-51.6444 Y10.2146
G01 X-51.6452 Y10.2333
G01 X-51.6485 Y10.2581
G01 X-51.6504 Y10.2673
G01 X-51.6550 Y10.2855
G01 X-51.6622 Y10.3062
G01 X-51.6659 Y10.3148
G01 X-51.6740 Y10.3318
G01 X-51.6851 Y10.3507
G01 X-51.6998 Y10.3710
G01 X-51.7142 Y10.3875
G01 X-51.7207 Y10.3942
G01 X-51.7370 Y10.4088
G01 X-51.7520 Y10.4202
G01 X-51.7597 Y10.4255
G01 X-51.7786 Y10.4366
G01 X-51.8844 Y10.4932
G01 X-52.0642 Y10.6408
G01 X-52.2118 Y10.8206
G01 X-52.3215 Y11.0258
G01 X-52.3890 Y11.2485
G01 X-52.4118 Y11.4800
G01 X-52.3890 Y11.7116
G01 X-52.3215 Y11.9342
G01 X-52.2118 Y12.1394
G01 X-52.0642 Y12.3192
G01 X-51.8844 Y12.4668
G01 X-51.6792 Y12.5765
G01 X-51.4565 Y12.6441
G01 X-51.2830 Y12.6611
G01 X-50.2670 Y12.6611
G01 X-50.0934 Y12.6441
G01 X-49.8708 Y12.5765
G01 X-49.6656 Y12.4668
G01 X-49.4858 Y12.3192
G01 X-49.3382 Y12.1394
G01 X-49.3137 Y12.0939
G01 X-49.3039 Y12.0779
G01 X-49.2910 Y12.0603
G01 X-49.2850 Y12.0532
G01 X-49.2723 Y12.0394
G01 X-49.2539 Y12.0227
G01 X-49.2364 Y12.0096
G01 X-49.2286 Y12.0045
G01 X-49.2125 Y11.9951
G01 X-49.1957 Y11.9869
G01 X-49.1871 Y11.9833
G01 X-49.1695 Y11.9770
G01 X-49.0804 Y11.9499
G01 X-48.9924 Y11.9029
G01 X-48.9154 Y11.8396
G01 X-48.9054 Y11.8276
G01 X-48.8907 Y11.8115
G01 X-46.6335 Y9.5543
G01 X-46.6174 Y9.5396
G01 X-46.6054 Y9.5296
G01 X-46.5421 Y9.4526
G01 X-46.4951 Y9.3646
G01 X-46.4662 Y9.2692
G01 X-46.4564 Y9.1700
G01 X-46.4579 Y9.1545
G01 X-46.4589 Y9.1327
G01 X-46.4588 Y6.7117
G01 X-46.4576 Y6.6899
G01 X-46.4540 Y6.6653
G01 X-46.4479 Y6.6411
G01 X-46.4418 Y6.6235
G01 X-46.4383 Y6.6148
G01 X-46.4317 Y6.6007
G01 X-46.4258 Y6.5897
G01 X-46.4143 Y6.5712
G01 X-46.3992 Y6.5514
G01 X-46.3845 Y6.5353
G01 X-45.3635 Y5.5143
G01 X-45.3474 Y5.4996
G01 X-45.3354 Y5.4896
G01 X-45.3254 Y5.4776
G01 X-45.3107 Y5.4615
G01 X-44.0935 Y4.2443
G01 X-44.0774 Y4.2296
G01 X-44.0654 Y4.2196
G01 X-44.0021 Y4.1426
G01 X-43.9551 Y4.0546
G01 X-43.9262 Y3.9592
G01 X-43.9164 Y3.8600
G01 X-43.9179 Y3.8445
G01 X-43.9187 Y3.8289
G01 X-43.9188 Y3.8049
G01 X-43.9176 Y3.7832
G01 X-43.9140 Y3.7585
G01 X-43.9079 Y3.7344
G01 X-43.8995 Y3.7109
G01 X-43.8889 Y3.6884
G01 X-43.8778 Y3.6696
G01 X-43.8651 Y3.6519
G01 X-43.8572 Y3.6423
G01 X-43.8423 Y3.6264
G01 X-43.8236 Y3.6099
G01 X-43.8060 Y3.5970
G01 X-43.6721 Y3.5075
G01 X-43.5075 Y3.3429
G01 X-43.4163 Y3.2064
G01 X-43.4032 Y3.1890
G01 X-43.3907 Y3.1750
G01 X-43.3842 Y3.1683
G01 X-43.3704 Y3.1558
G01 X-43.3631 Y3.1499
G01 X-43.3480 Y3.1389
G01 X-43.3293 Y3.1276
G01 X-43.3211 Y3.1233
G01 X-43.3041 Y3.1155
G01 X-43.2836 Y3.1080
G01 X-43.2746 Y3.1054
G01 X-43.2534 Y3.1005
G01 X-43.2287 Y3.0971
G01 X-43.2101 Y3.0962
G01 X-43.1892 Y3.0962
G01 X-43.1705 Y3.0971
G01 X-43.1550 Y3.0986
G01 X-43.0558 Y3.0888
G01 X-42.9604 Y3.0599
G01 X-42.8724 Y3.0129
G01 X-42.7954 Y2.9496
G01 X-42.7854 Y2.9376
G01 X-42.7707 Y2.9215
G01 X-39.8484 Y-0.0008
G01 X-39.8299 Y-0.0175
G01 X-39.8150 Y-0.0288
G01 X-39.8073 Y-0.0341
G01 X-39.7885 Y-0.0452
G01 X-39.7689 Y-0.0546
G01 X-39.7602 Y-0.0581
G01 X-39.7426 Y-0.0642
G01 X-39.7214 Y-0.0696
G01 X-39.6999 Y-0.0732
G01 X-39.6907 Y-0.0742
G01 X-39.6720 Y-0.0751
G01 X-39.6627 Y-0.0750
G01 X-39.6440 Y-0.0739
G01 X-39.6255 Y-0.0713
G01 X-39.4613 Y-0.0389
G01 X-39.2287 Y-0.0389
G01 X-39.0005 Y-0.0842
G01 X-38.7855 Y-0.1733
G01 X-38.5921 Y-0.3025
G01 X-38.4275 Y-0.4671
G01 X-38.2983 Y-0.6605
G01 X-38.2092 Y-0.8755
G01 X-38.1639 Y-1.1037
G01 X-38.1639 Y-1.3363
G01 X-38.2092 Y-1.5645
G01 X-38.2983 Y-1.7795
G01 X-38.4275 Y-1.9729
G01 X-38.5921 Y-2.1374
G01 X-38.7855 Y-2.2667
G01 X-39.0005 Y-2.3557
G01 X-39.2287 Y-2.4011
G01 X-39.4613 Y-2.4011
G01 X-39.6895 Y-2.3557
G01 X-39.9045 Y-2.2667
G01 X-40.0979 Y-2.1374
G01 X-40.2624 Y-1.9729
G01 X-40.3917 Y-1.7795
G01 X-40.4807 Y-1.5645
G01 X-40.5261 Y-1.3363
G01 X-40.5261 Y-1.1037
G01 X-40.4936 Y-0.9395
G01 X-40.4910 Y-0.9210
G01 X-40.4900 Y-0.9023
G01 X-40.4899 Y-0.8930
G01 X-40.4908 Y-0.8743
G01 X-40.4936 Y-0.8527
G01 X-40.4961 Y-0.8405
G01 X-40.5007 Y-0.8224
G01 X-40.5091 Y-0.7990
G01 X-40.5184 Y-0.7792
G01 X-40.5229 Y-0.7710
G01 X-40.5326 Y-0.7551
G01 X-40.5455 Y-0.7375
G01 X-40.5515 Y-0.7303
G01 X-40.5642 Y-0.7166
G01 X-43.1332 Y1.8524
G01 X-43.1493 Y1.8671
G01 X-43.1565 Y1.8730
G01 X-43.1717 Y1.8840
G01 X-43.1876 Y1.8937
G01 X-43.1958 Y1.8982
G01 X-43.2155 Y1.9075
G01 X-43.2360 Y1.9149
G01 X-43.2450 Y1.9175
G01 X-43.2632 Y1.9219
G01 X-43.2816 Y1.9248
G01 X-43.2909 Y1.9258
G01 X-43.3127 Y1.9268
G01 X-43.3314 Y1.9260
G01 X-43.3407 Y1.9252
G01 X-43.3622 Y1.9219
G01 X-43.3804 Y1.9175
G01 X-43.3894 Y1.9149
G01 X-43.4098 Y1.9075
G01 X-43.4324 Y1.8968
G01 X-43.4511 Y1.8857
G01 X-43.4688 Y1.8730
G01 X-43.4785 Y1.8651
G01 X-43.4922 Y1.8524
G01 X-43.6721 Y1.6726
G01 X-43.8655 Y1.5433
G01 X-44.0805 Y1.4543
G01 X-44.3087 Y1.4089
G01 X-44.5413 Y1.4089
G01 X-44.7695 Y1.4543
G01 X-44.9845 Y1.5433
G01 X-45.1779 Y1.6726
G01 X-45.3424 Y1.8371
G01 X-45.4717 Y2.0305
G01 X-45.5607 Y2.2455
G01 X-45.6061 Y2.4737
G01 X-45.6061 Y2.7063
G01 X-45.5607 Y2.9345
G01 X-45.4717 Y3.1495
G01 X-45.3424 Y3.3429
G01 X-45.1626 Y3.5228
G01 X-45.1499 Y3.5365
G01 X-45.1420 Y3.5462
G01 X-45.1293 Y3.5639
G01 X-45.1182 Y3.5826
G01 X-45.1088 Y3.6023
G01 X-45.1053 Y3.6110
G01 X-45.0992 Y3.6286
G01 X-45.0931 Y3.6528
G01 X-45.0902 Y3.6712
G01 X-45.0892 Y3.6805
G01 X-45.0883 Y3.6992
G01 X-45.0884 Y3.7085
G01 X-45.0892 Y3.7241
G01 X-45.0902 Y3.7334
G01 X-45.0931 Y3.7518
G01 X-45.0975 Y3.7700
G01 X-45.1001 Y3.7790
G01 X-45.1064 Y3.7966
G01 X-45.1168 Y3.8192
G01 X-45.1277 Y3.8381
G01 X-45.1346 Y3.8484
G01 X-45.1458 Y3.8634
G01 X-45.1626 Y3.8818
G01 X-45.8303 Y4.5495
G01 X-45.8487 Y4.5663
G01 X-45.8637 Y4.5775
G01 X-45.8740 Y4.5844
G01 X-45.8929 Y4.5953
G01 X-45.9098 Y4.6033
G01 X-45.9184 Y4.6068
G01 X-45.9361 Y4.6129
G01 X-45.9542 Y4.6176
G01 X-45.9633 Y4.6196
G01 X-45.9818 Y4.6223
G01 X-46.0067 Y4.6238
G01 X-46.6502 Y4.6239
G01 X-46.6751 Y4.6227
G01 X-46.6936 Y4.6201
G01 X-46.7028 Y4.6184
G01 X-46.7239 Y4.6129
G01 X-46.7415 Y4.6068
G01 X-46.7502 Y4.6033
G01 X-46.7699 Y4.5939
G01 X-46.7912 Y4.5811
G01 X-46.8063 Y4.5701
G01 X-46.8136 Y4.5642
G01 X-46.8297 Y4.5495
G01 X-48.2917 Y3.0875
G01 X-48.3042 Y3.0736
G01 X-48.3101 Y3.0664
G01 X-48.3211 Y3.0513
G01 X-48.3308 Y3.0353
G01 X-48.3353 Y3.0271
G01 X-48.3445 Y3.0074
G01 X-48.3510 Y2.9898
G01 X-48.3538 Y2.9809
G01 X-48.3590 Y2.9597
G01 X-48.3619 Y2.9413
G01 X-48.3629 Y2.9320
G01 X-48.3639 Y2.9102
G01 X-48.3639 Y0.9830
G01 X-48.3629 Y0.9612
G01 X-48.3619 Y0.9519
G01 X-48.3590 Y0.9335
G01 X-48.3529 Y0.9093
G01 X-48.3445 Y0.8858
G01 X-48.3353 Y0.8661
G01 X-48.3244 Y0.8472
G01 X-48.3175 Y0.8369
G01 X-48.3062 Y0.8219
G01 X-48.2768 Y0.7861
G01 X-48.2276 Y0.6940
G01 X-48.1972 Y0.5940
G01 X-48.1858 Y0.4775
G01 X-48.1858 Y-0.7975
G01 X-48.1972 Y-0.9140
G01 X-48.2276 Y-1.0140
G01 X-48.2768 Y-1.1061
G01 X-48.3431 Y-1.1869
G01 X-48.4239 Y-1.2531
G01 X-48.5160 Y-1.3024
G01 X-48.6160 Y-1.3327
G01 X-48.7325 Y-1.3442
G01 X-49.0075 Y-1.3442
G01 X-49.1240 Y-1.3327
G01 X-49.2240 Y-1.3024
G01 X-49.2631 Y-1.2815
G01 X-49.2828 Y-1.2723
G01 X-49.3063 Y-1.2639
G01 X-49.3274 Y-1.2585
G01 X-49.3520 Y-1.2545
G01 X-49.3738 Y-1.2531
G01 X-49.3862 Y-1.2531
G01 X-49.4018 Y-1.2539
G01 X-49.4110 Y-1.2550
G01 X-49.4295 Y-1.2579
G01 X-49.4537 Y-1.2639
G01 X-49.4771 Y-1.2723
G01 X-49.4941 Y-1.2802
G01 X-49.5051 Y-1.2860
G01 X-49.5236 Y-1.2975
G01 X-49.5410 Y-1.3106
G01 X-49.5573 Y-1.3252
G01 X-49.5722 Y-1.3411
G01 X-49.5801 Y-1.3507
G01 X-49.5911 Y-1.3658
G01 X-49.6039 Y-1.3872
G01 X-49.6145 Y-1.4097
G01 X-49.6210 Y-1.4272
G01 X-49.6246 Y-1.4392
G01 X-49.6295 Y-1.4604
G01 X-49.6323 Y-1.4789
G01 X-49.6331 Y-1.4882
G01 X-49.6338 Y-1.5037
G01 X-49.6338 Y-1.5433
G01 X-49.6329 Y-1.5620
G01 X-49.6319 Y-1.5712
G01 X-49.6290 Y-1.5897
G01 X-49.6246 Y-1.6079
G01 X-49.6220 Y-1.6168
G01 X-49.6145 Y-1.6373
G01 X-49.6067 Y-1.6543
G01 X-49.6024 Y-1.6626
G01 X-49.5928 Y-1.6786
G01 X-49.5875 Y-1.6863
G01 X-49.5762 Y-1.7012
G01 X-49.5638 Y-1.7152
G01 X-48.0975 Y-3.1817
G01 X-48.0836 Y-3.1942
G01 X-48.0763 Y-3.2001
G01 X-48.0612 Y-3.2111
G01 X-48.0453 Y-3.2208
G01 X-48.0371 Y-3.2253
G01 X-48.0173 Y-3.2345
G01 X-47.9998 Y-3.2410
G01 X-47.9909 Y-3.2438
G01 X-47.9697 Y-3.2490
G01 X-47.9512 Y-3.2519
G01 X-47.9420 Y-3.2529
G01 X-47.9202 Y-3.2539
G01 X-41.9223 Y-3.2539
G01 X-41.9005 Y-3.2529
G01 X-41.8850 Y-3.2514
G01 X-41.8694 Y-3.2529
G01 X-41.8477 Y-3.2539
G01 X-40.6523 Y-3.2539
G01 X-40.6305 Y-3.2529
G01 X-40.6150 Y-3.2514
G01 X-40.5994 Y-3.2529
G01 X-40.5777 Y-3.2539
G01 X-32.0398 Y-3.2539
G01 X-32.0180 Y-3.2529
G01 X-32.0087 Y-3.2519
G01 X-31.9903 Y-3.2490
G01 X-31.9721 Y-3.2446
G01 X-31.9631 Y-3.2420
G01 X-31.9426 Y-3.2345
G01 X-31.9257 Y-3.2267
G01 X-31.9174 Y-3.2224
G01 X-31.8987 Y-3.2111
G01 X-31.8836 Y-3.2001
G01 X-31.8764 Y-3.1942
G01 X-31.8603 Y-3.1795
G01 X-24.4893 Y4.1915
G01 X-24.4746 Y4.2076
G01 X-24.4646 Y4.2196
G01 X-24.3875 Y4.2829
G01 X-24.2996 Y4.3299
G01 X-24.2042 Y4.3588
G01 X-24.1050 Y4.3686
G01 X-24.0894 Y4.3671
G01 X-24.0677 Y4.3661
G01 X-21.2725 Y4.3661
G01 X-21.2538 Y4.3669
G01 X-21.2445 Y4.3677
G01 X-21.2230 Y4.3710
G01 X-21.2048 Y4.3754
G01 X-21.1958 Y4.3780
G01 X-21.1753 Y4.3855
G01 X-21.1556 Y4.3947
G01 X-21.1474 Y4.3992
G01 X-21.1315 Y4.4089
G01 X-21.1163 Y4.4199
G01 X-21.1091 Y4.4258
G01 X-21.0952 Y4.4383
G01 X-21.0803 Y4.4543
G01 X-21.0724 Y4.4639
G01 X-21.0632 Y4.4764
G01 X-21.0571 Y4.4855
G01 X-20.9204 Y4.6221
G01 X-20.7597 Y4.7295
G01 X-20.5812 Y4.8034
G01 X-20.3916 Y4.8411
G01 X-20.1984 Y4.8411
G01 X-20.0088 Y4.8034
G01 X-19.8302 Y4.7295
G01 X-19.6695 Y4.6221
G01 X-19.5329 Y4.4855
G01 X-19.4255 Y4.3248
G01 X-19.3516 Y4.1462
G01 X-19.3139 Y3.9566
G01 X-19.3139 Y3.7634
G01 X-19.3516 Y3.5738
G01 X-19.4255 Y3.3953
G01 X-19.5329 Y3.2346
G01 X-19.6695 Y3.0979
G01 X-19.8302 Y2.9905
G01 X-20.0088 Y2.9166
G01 X-20.1984 Y2.8789
G01 X-20.3916 Y2.8789
G01 X-20.5812 Y2.9166
G01 X-20.7597 Y2.9905
G01 X-20.9204 Y3.0979
G01 X-21.0571 Y3.2346
G01 X-21.0632 Y3.2436
G01 X-21.0724 Y3.2562
G01 X-21.0803 Y3.2658
G01 X-21.0952 Y3.2817
G01 X-21.1091 Y3.2942
G01 X-21.1163 Y3.3001
G01 X-21.1315 Y3.3111
G01 X-21.1474 Y3.3208
G01 X-21.1556 Y3.3253
G01 X-21.1753 Y3.3346
G01 X-21.1958 Y3.3420
G01 X-21.2048 Y3.3446
G01 X-21.2230 Y3.3490
G01 X-21.2445 Y3.3523
G01 X-21.2538 Y3.3531
G01 X-21.2725 Y3.3539
G01 X-23.7933 Y3.3538
G01 X-23.8151 Y3.3527
G01 X-23.8336 Y3.3501
G01 X-23.8428 Y3.3484
G01 X-23.8639 Y3.3429
G01 X-23.8873 Y3.3346
G01 X-23.9043 Y3.3267
G01 X-23.9153 Y3.3208
G01 X-23.9338 Y3.3093
G01 X-23.9512 Y3.2963
G01 X-23.9697 Y3.2795
G01 X-31.3407 Y-4.0915
G01 X-31.3554 Y-4.1076
G01 X-31.3654 Y-4.1196
G01 X-31.4424 Y-4.1829
G01 X-31.5304 Y-4.2299
G01 X-31.6258 Y-4.2588
G01 X-31.7250 Y-4.2686
G01 X-31.7405 Y-4.2671
G01 X-31.7623 Y-4.2661
G01 X-38.7804 Y-4.2661
G01 X-38.8021 Y-4.2671
G01 X-38.8114 Y-4.2681
G01 X-38.8299 Y-4.2710
G01 X-38.8511 Y-4.2762
G01 X-38.8600 Y-4.2790
G01 X-38.8775 Y-4.2854
G01 X-38.8973 Y-4.2947
G01 X-38.9055 Y-4.2992
G01 X-38.9214 Y-4.3089
G01 X-38.9414 Y-4.3237
G01 X-38.9599 Y-4.3405
G01 X-38.9746 Y-4.3566
G01 X-38.9897 Y-4.3764
G01 X-39.0012 Y-4.3949
G01 X-39.0071 Y-4.4059
G01 X-39.0137 Y-4.4200
G01 X-39.0171 Y-4.4286
G01 X-39.0233 Y-4.4463
G01 X-39.0294 Y-4.4705
G01 X-39.0330 Y-4.4951
G01 X-39.0342 Y-4.5200
G01 X-39.0330 Y-4.5449
G01 X-39.0294 Y-4.5695
G01 X-39.0233 Y-4.5937
G01 X-39.0171 Y-4.6113
G01 X-39.0137 Y-4.6200
G01 X-39.0043 Y-4.6397
G01 X-38.9948 Y-4.6558
G01 X-38.9897 Y-4.6636
G01 X-38.9766 Y-4.6810
G01 X-38.9221 Y-4.7474
G01 X-38.8751 Y-4.8354
G01 X-38.8462 Y-4.9308
G01 X-38.8363 Y-5.0306
G01 X-38.8330 Y-5.0521
G01 X-38.8286 Y-5.0703
G01 X-38.8250 Y-5.0822
G01 X-38.8173 Y-5.1026
G01 X-38.8079 Y-5.1223
G01 X-38.7951 Y-5.1436
G01 X-38.7803 Y-5.1636
G01 X-38.7678 Y-5.1776
G01 X-38.7590 Y-5.1864
G01 X-38.7426 Y-5.2008
G01 X-38.7250 Y-5.2137
G01 X-38.5921 Y-5.3025
G01 X-38.4275 Y-5.4671
G01 X-38.2983 Y-5.6605
G01 X-38.2092 Y-5.8755
G01 X-38.1639 Y-6.1037
G01 X-38.1639 Y-6.3363
G01 X-38.2092 Y-6.5645
G01 X-38.2983 Y-6.7795
G01 X-38.4275 Y-6.9729
G01 X-38.5921 Y-7.1374
G01 X-38.7855 Y-7.2667
G01 X-39.0005 Y-7.3557
G01 X-39.2287 Y-7.4011
G01 X-39.4613 Y-7.4011
G01 X-39.6895 Y-7.3557
G01 X-39.9045 Y-7.2667
G01 X-40.0979 Y-7.1374
G01 X-40.2624 Y-6.9729
G01 X-40.3917 Y-6.7795
G01 X-40.4807 Y-6.5645
G01 X-40.5261 Y-6.3363
G01 X-40.5261 Y-6.1037
G01 X-40.4807 Y-5.8755
G01 X-40.3917 Y-5.6605
G01 X-40.2624 Y-5.4671
G01 X-40.1226 Y-5.3272
G01 X-40.1079 Y-5.3111
G01 X-40.0928 Y-5.2913
G01 X-40.0813 Y-5.2728
G01 X-40.0754 Y-5.2618
G01 X-40.0664 Y-5.2420
G01 X-40.0592 Y-5.2214
G01 X-40.0545 Y-5.2033
G01 X-40.0525 Y-5.1942
G01 X-40.0494 Y-5.1726
G01 X-40.0483 Y-5.1508
G01 X-40.0484 Y-5.1415
G01 X-40.0494 Y-5.1228
G01 X-40.0520 Y-5.1043
G01 X-40.0537 Y-5.0951
G01 X-40.0592 Y-5.0740
G01 X-40.0664 Y-5.0534
G01 X-40.0701 Y-5.0449
G01 X-40.0782 Y-5.0280
G01 X-40.0893 Y-5.0093
G01 X-40.0946 Y-5.0016
G01 X-40.1079 Y-4.9843
G01 X-40.1226 Y-4.9682
G01 X-40.7525 Y-4.3383
G01 X-40.7687 Y-4.3237
G01 X-40.7887 Y-4.3089
G01 X-40.8101 Y-4.2961
G01 X-40.8298 Y-4.2867
G01 X-40.8384 Y-4.2832
G01 X-40.8561 Y-4.2771
G01 X-40.8803 Y-4.2710
G01 X-40.9049 Y-4.2673
G01 X-40.9267 Y-4.2662
G01 X-41.5702 Y-4.2661
G01 X-41.5889 Y-4.2669
G01 X-41.5982 Y-4.2677
G01 X-41.6167 Y-4.2704
G01 X-41.6258 Y-4.2724
G01 X-41.6439 Y-4.2771
G01 X-41.6615 Y-4.2832
G01 X-41.6702 Y-4.2867
G01 X-41.6899 Y-4.2961
G01 X-41.7112 Y-4.3089
G01 X-41.7263 Y-4.3199
G01 X-41.7336 Y-4.3258
G01 X-41.7497 Y-4.3405
G01 X-43.6874 Y-6.2782
G01 X-43.7041 Y-6.2966
G01 X-43.7190 Y-6.3167
G01 X-43.7318 Y-6.3380
G01 X-43.7412 Y-6.3577
G01 X-43.7447 Y-6.3663
G01 X-43.7508 Y-6.3840
G01 X-43.7569 Y-6.4082
G01 X-43.7605 Y-6.4328
G01 X-43.7618 Y-6.4577
G01 X-43.7605 Y-6.4826
G01 X-43.7569 Y-6.5072
G01 X-43.7508 Y-6.5314
G01 X-43.7447 Y-6.5490
G01 X-43.7412 Y-6.5577
G01 X-43.7318 Y-6.5774
G01 X-43.7207 Y-6.5961
G01 X-43.7080 Y-6.6138
G01 X-43.7001 Y-6.6235
G01 X-43.6874 Y-6.6372
G01 X-43.5075 Y-6.8171
G01 X-43.3783 Y-7.0105
G01 X-43.2892 Y-7.2255
G01 X-43.2439 Y-7.4537
G01 X-43.2439 Y-7.6863
G01 X-43.2892 Y-7.9145
G01 X-43.3783 Y-8.1295
G01 X-43.5075 Y-8.3229
G01 X-43.6721 Y-8.4874
G01 X-43.6963 Y-8.5037
G01 X-43.7113 Y-8.5148
G01 X-43.7277 Y-8.5292
G01 X-43.7365 Y-8.5380
G01 X-43.7489 Y-8.5519
G01 X-43.7602 Y-8.5669
G01 X-43.7655 Y-8.5746
G01 X-43.7735 Y-8.5879
G01 X-43.7780 Y-8.5961
G01 X-43.7860 Y-8.6130
G01 X-43.7895 Y-8.6216
G01 X-43.7956 Y-8.6393
G01 X-43.8017 Y-8.6635
G01 X-43.8050 Y-8.6850
G01 X-43.8064 Y-8.7068
G01 X-43.8064 Y-8.7192
G01 X-43.8053 Y-8.7379
G01 X-43.8017 Y-8.7625
G01 X-43.7956 Y-8.7867
G01 X-43.7895 Y-8.8043
G01 X-43.7847 Y-8.8158
G01 X-43.7751 Y-8.8354
G01 X-43.7638 Y-8.8540
G01 X-43.7489 Y-8.8740
G01 X-43.7322 Y-8.8925
G01 X-43.7184 Y-8.9052
G01 X-43.7088 Y-8.9131
G01 X-43.6911 Y-8.9258
G01 X-43.6723 Y-8.9369
G01 X-43.6555 Y-8.9450
G01 X-43.6469 Y-8.9487
G01 X-43.6264 Y-8.9559
G01 X-43.6022 Y-8.9620
G01 X-43.5837 Y-8.9649
G01 X-43.5745 Y-8.9659
G01 X-43.5527 Y-8.9669
G01 X-15.3420 Y-8.9669
G01 X-15.3233 Y-8.9661
G01 X-15.3140 Y-8.9653
G01 X-15.2955 Y-8.9625
G01 X-15.2864 Y-8.9606
G01 X-15.2713 Y-8.9568
G01 X-15.2624 Y-8.9540
G01 X-15.2448 Y-8.9475
G01 X-15.2279 Y-8.9397
G01 X-15.2196 Y-8.9354
G01 X-15.2009 Y-8.9241
G01 X-15.1834 Y-8.9112
G01 X-15.1762 Y-8.9052
G01 X-15.1625 Y-8.8925
G01 X-15.1478 Y-8.8764
G01 X-15.1419 Y-8.8691
G01 X-15.1292 Y-8.8514
G01 X-15.1181 Y-8.8327
G01 X-15.1100 Y-8.8158
G01 X-15.1063 Y-8.8072
G01 X-15.0991 Y-8.7867
G01 X-15.0930 Y-8.7625
G01 X-15.0901 Y-8.7440
G01 X-15.0891 Y-8.7348
G01 X-15.0881 Y-8.7130
G01 X-15.0881 Y18.9730
G01 X-15.0889 Y18.9917
G01 X-15.0897 Y19.0010
G01 X-15.0924 Y19.0195
G01 X-15.0944 Y19.0286
G01 X-15.0991 Y19.0467
G01 X-15.1052 Y19.0644
G01 X-15.1087 Y19.0730
G01 X-15.1153 Y19.0871
G01 X-15.1196 Y19.0954
G01 X-15.1309 Y19.1141
G01 X-15.1438 Y19.1316
G01 X-15.1498 Y19.1388
G01 X-15.1625 Y19.1525
G01 X-15.1786 Y19.1672
G01 X-15.1959 Y19.1805
G01 X-15.2036 Y19.1858
G01 X-15.2223 Y19.1969
G01 X-15.2391 Y19.2050
G01 X-15.2477 Y19.2087
G01 X-15.2683 Y19.2159
G01 X-15.2925 Y19.2220
G01 X-15.3109 Y19.2249
G01 X-15.3202 Y19.2259
G01 X-15.3420 Y19.2269
G01 X-62.8150 Y19.2269
G01 X-62.8337 Y19.2261
G01 X-62.8430 Y19.2253
G01 X-62.8615 Y19.2226
G01 X-62.8706 Y19.2206
G01 X-62.8857 Y19.2168
G01 X-62.8946 Y19.2140
G01 X-62.9121 Y19.2076
G01 X-62.9291 Y19.1997
G01 X-62.9374 Y19.1954
G01 X-62.9560 Y19.1841
G01 X-62.9736 Y19.1712
G01 X-62.9807 Y19.1652
G01 X-62.9945 Y19.1525
G01 X-63.0092 Y19.1364
G01 X-63.0225 Y19.1191
G01 X-63.0278 Y19.1114
G01 X-63.0389 Y19.0927
G01 X-63.0470 Y19.0759
G01 X-63.0507 Y19.0673
G01 X-63.0579 Y19.0467
G01 X-63.0640 Y19.0225
G01 X-63.0669 Y19.0041
G01 X-63.0679 Y18.9948
G01 X-63.0689 Y18.9730
G01 X-63.0688 Y1.0720
G01 X-63.0676 Y1.0502
G01 X-63.0650 Y1.0317
G01 X-63.0633 Y1.0226
G01 X-63.0579 Y1.0014
G01 X-63.0507 Y0.9809
G01 X-63.0470 Y0.9723
G01 X-63.0389 Y0.9555
G01 X-63.0261 Y0.9341
G01 X-63.0112 Y0.9141
G01 X-62.9988 Y0.9001
G01 X-62.9923 Y0.8934
G01 X-62.9760 Y0.8789
G01 X-62.9586 Y0.8658
G01 X-62.9508 Y0.8607
G01 X-62.9347 Y0.8512
G01 X-62.9178 Y0.8431
G01 X-62.9063 Y0.8383
G01 X-62.8916 Y0.8331
G01 X-62.8827 Y0.8305
G01 X-62.8615 Y0.8256
G01 X-62.8368 Y0.8222
G01 X-62.8119 Y0.8213
G01 X-62.7932 Y0.8222
G01 X-62.7736 Y0.8241
G01 X-62.5268 Y0.8220
G01 X-62.5159 Y0.8111
G01 X-62.5159 Y0.5668
G01 X-62.7881 Y0.5668
G01 X-62.7974 Y0.5662
G01 X-62.8067 Y0.5649
G01 X-62.8158 Y0.5630
G01 X-62.8248 Y0.5604
G01 X-62.8335 Y0.5572
G01 X-62.8420 Y0.5533
G01 X-62.8502 Y0.5488
G01 X-62.8580 Y0.5437
G01 X-62.8678 Y0.5360
G01 X-62.8746 Y0.5297
G01 X-62.8810 Y0.5228
G01 X-62.8868 Y0.5155
G01 X-62.8921 Y0.5079
G01 X-62.8982 Y0.4970
G01 X-62.9021 Y0.4885
G01 X-62.9054 Y0.4798
G01 X-62.9087 Y0.4678
G01 X-62.9104 Y0.4586
G01 X-62.9114 Y0.4493
G01 X-62.9118 Y0.4400
G01 X-62.9118 Y-1.2100
G01 X-62.9112 Y-1.2224
G01 X-62.9094 Y-1.2347
G01 X-62.9054 Y-1.2498
G01 X-62.9021 Y-1.2585
G01 X-62.8982 Y-1.2670
G01 X-62.8937 Y-1.2752
G01 X-62.8887 Y-1.2830
G01 X-62.8830 Y-1.2904
G01 X-62.8768 Y-1.2974
G01 X-62.8654 Y-1.3080
G01 X-62.8580 Y-1.3137
G01 X-62.8502 Y-1.3187
G01 X-62.8420 Y-1.3232
G01 X-62.8335 Y-1.3271
G01 X-62.8248 Y-1.3304
G01 X-62.8158 Y-1.3330
G01 X-62.8036 Y-1.3354
G01 X-62.7881 Y-1.3367
G01 X-62.5159 Y-1.3368
G01 X-62.5159 Y-1.5832
G01 X-63.0850 Y-1.5832
G01 X-63.1005 Y-1.5841
G01 X-63.1158 Y-1.5870
G01 X-63.1248 Y-1.5896
G01 X-63.1335 Y-1.5928
G01 X-63.1475 Y-1.5997
G01 X-63.1554 Y-1.6046
G01 X-63.1630 Y-1.6100
G01 X-63.1746 Y-1.6203
G01 X-63.1810 Y-1.6272
G01 X-63.1868 Y-1.6345
G01 X-63.1921 Y-1.6421
G01 X-63.1968 Y-1.6502
G01 X-63.2009 Y-1.6586
G01 X-63.2044 Y-1.6673
G01 X-63.2080 Y-1.6792
G01 X-63.2099 Y-1.6883
G01 X-63.2114 Y-1.7007
G01 X-63.2118 Y-1.7100
G01 X-63.2117 Y-3.5131
G01 X-63.2112 Y-3.5224
G01 X-63.2094 Y-3.5347
G01 X-63.2072 Y-3.5438
G01 X-63.2033 Y-3.5556
G01 X-63.1996 Y-3.5642
G01 X-63.1937 Y-3.5752
G01 X-63.1887 Y-3.5830
G01 X-63.1810 Y-3.5928
G01 X-63.1746 Y-3.5996
G01 X-63.1654 Y-3.6080
G01 X-63.1554 Y-3.6154
G01 X-63.1475 Y-3.6203
G01 X-63.1364 Y-3.6259
G01 X-63.1277 Y-3.6294
G01 X-63.1158 Y-3.6330
G01 X-63.1067 Y-3.6349
G01 X-63.0974 Y-3.6362
G01 X-63.0850 Y-3.6368
G01 X-62.5159 Y-3.6368
G01 X-62.5159 Y-3.8811
G01 X-62.5264 Y-3.8916
G01 X-62.8162 Y-3.8929
G01 X-62.8348 Y-3.8938
G01 X-62.8440 Y-3.8946
G01 X-62.8625 Y-3.8974
G01 X-62.8836 Y-3.9025
G01 X-62.8955 Y-3.9061
G01 X-62.9101 Y-3.9114
G01 X-62.9186 Y-3.9151
G01 X-62.9354 Y-3.9233
G01 X-62.9514 Y-3.9328
G01 X-62.9592 Y-3.9379
G01 X-62.9765 Y-3.9510
G01 X-62.9927 Y-3.9655
G01 X-62.9992 Y-3.9722
G01 X-63.0116 Y-3.9862
G01 X-63.0263 Y-4.0061
G01 X-63.0376 Y-4.0247
G01 X-63.0418 Y-4.0330
G01 X-63.0496 Y-4.0499
G01 X-63.0580 Y-4.0733
G01 X-63.0640 Y-4.0974
G01 X-63.0669 Y-4.1158
G01 X-63.0679 Y-4.1251
G01 X-63.0689 Y-4.1468
G01 X-63.0688 Y-4.1763
G01 X-63.0679 Y-4.1949
G01 X-63.0669 Y-4.2041
G01 X-63.0640 Y-4.2225
G01 X-63.0588 Y-4.2437
G01 X-63.0560 Y-4.2525
G01 X-63.0496 Y-4.2700
G01 X-63.0390 Y-4.2925
G01 X-63.0263 Y-4.3138
G01 X-63.0154 Y-4.3289
G01 X-63.0096 Y-4.3362
G01 X-62.9949 Y-4.3523
G01 X-62.9765 Y-4.3690
G01 X-62.9617 Y-4.3802
G01 X-62.9514 Y-4.3872
G01 X-62.9326 Y-4.3981
G01 X-62.9129 Y-4.4074
G01 X-62.8896 Y-4.4158
G01 X-62.8655 Y-4.4219
G01 X-62.8471 Y-4.4249
G01 X-62.8379 Y-4.4260
G01 X-62.8162 Y-4.4270
G01 X-62.5264 Y-4.4284
G01 X-62.5159 Y-4.4389
G01 X-62.5159 Y-4.6832
G01 X-63.0850 Y-4.6832
G01 X-63.0974 Y-4.6838
G01 X-63.1128 Y-4.6863
G01 X-63.1248 Y-4.6896
G01 X-63.1392 Y-4.6954
G01 X-63.1528 Y-4.7029
G01 X-63.1654 Y-4.7120
G01 X-63.1768 Y-4.7226
G01 X-63.1868 Y-4.7345
G01 X-63.1937 Y-4.7448
G01 X-63.2009 Y-4.7586
G01 X-63.2044 Y-4.7673
G01 X-63.2072 Y-4.7762
G01 X-63.2104 Y-4.7914
G01 X-63.2117 Y-4.8069
G01 X-63.2117 Y-5.8131
G01 X-63.2112 Y-5.8224
G01 X-63.2094 Y-5.8347
G01 X-63.2063 Y-5.8468
G01 X-63.2033 Y-5.8556
G01 X-63.1982 Y-5.8670
G01 X-63.1937 Y-5.8752
G01 X-63.1868 Y-5.8855
G01 X-63.1810 Y-5.8928
G01 X-63.1746 Y-5.8996
G01 X-63.1654 Y-5.9080
G01 X-63.1554 Y-5.9154
G01 X-63.1475 Y-5.9203
G01 X-63.1392 Y-5.9246
G01 X-63.1277 Y-5.9294
G01 X-63.1158 Y-5.9330
G01 X-63.1067 Y-5.9349
G01 X-63.0974 Y-5.9362
G01 X-63.0850 Y-5.9368
G01 X-62.5159 Y-5.9368
G01 X-62.5159 Y-6.1832
G01 X-62.7881 Y-6.1832
G01 X-62.7974 Y-6.1838
G01 X-62.8067 Y-6.1851
G01 X-62.8158 Y-6.1870
G01 X-62.8248 Y-6.1896
G01 X-62.8335 Y-6.1928
G01 X-62.8420 Y-6.1967
G01 X-62.8502 Y-6.2012
G01 X-62.8580 Y-6.2063
G01 X-62.8678 Y-6.2140
G01 X-62.8746 Y-6.2203
G01 X-62.8810 Y-6.2272
G01 X-62.8868 Y-6.2345
G01 X-62.8921 Y-6.2421
G01 X-62.8982 Y-6.2530
G01 X-62.9021 Y-6.2615
G01 X-62.9054 Y-6.2702
G01 X-62.9087 Y-6.2822
G01 X-62.9104 Y-6.2914
G01 X-62.9114 Y-6.3007
G01 X-62.9118 Y-6.3100
G01 X-62.9118 Y-7.9600
G01 X-62.9112 Y-7.9724
G01 X-62.9094 Y-7.9847
G01 X-62.9054 Y-7.9998
G01 X-62.9021 Y-8.0085
G01 X-62.8982 Y-8.0170
G01 X-62.8937 Y-8.0252
G01 X-62.8887 Y-8.0330
G01 X-62.8830 Y-8.0404
G01 X-62.8768 Y-8.0474
G01 X-62.8654 Y-8.0580
G01 X-62.8580 Y-8.0637
G01 X-62.8502 Y-8.0687
G01 X-62.8420 Y-8.0732
G01 X-62.8335 Y-8.0771
G01 X-62.8248 Y-8.0804
G01 X-62.8158 Y-8.0830
G01 X-62.8036 Y-8.0854
G01 X-62.7881 Y-8.0867
G01 X-62.5159 Y-8.0868
G01 X-62.5159 Y-8.3311
G01 X-62.5268 Y-8.3420
G01 X-62.7736 Y-8.3441
G01 X-62.7932 Y-8.3422
G01 X-62.8150 Y-8.3412
G01 X-62.8399 Y-8.3425
G01 X-62.8615 Y-8.3455
G01 X-62.8827 Y-8.3505
G01 X-62.8946 Y-8.3541
G01 X-62.9121 Y-8.3606
G01 X-62.9347 Y-8.3712
G01 X-62.9534 Y-8.3823
G01 X-62.9611 Y-8.3876
G01 X-62.9760 Y-8.3989
G01 X-62.9923 Y-8.4134
G01 X-63.0092 Y-8.4317
G01 X-63.0225 Y-8.4490
G01 X-63.0294 Y-8.4593
G01 X-63.0374 Y-8.4727
G01 X-63.0417 Y-8.4810
G01 X-63.0495 Y-8.4980
G01 X-63.0579 Y-8.5214
G01 X-63.0640 Y-8.5456
G01 X-63.0673 Y-8.5671
G01 X-63.0681 Y-8.5764
G01 X-63.0689 Y-8.5951
G01 X-63.0689 Y-8.7130
G01 X-63.0676 Y-8.7379
G01 X-63.0640 Y-8.7625
G01 X-63.0579 Y-8.7867
G01 X-63.0495 Y-8.8101
G01 X-63.0389 Y-8.8327
G01 X-63.0278 Y-8.8514
G01 X-63.0225 Y-8.8591
G01 X-63.0112 Y-8.8740
G01 X-62.9967 Y-8.8903
G01 X-62.9900 Y-8.8968
G01 X-62.9760 Y-8.9092
G01 X-62.9586 Y-8.9223
G01 X-62.9508 Y-8.9274
G01 X-62.9347 Y-8.9369
G01 X-62.9178 Y-8.9450
G01 X-62.9092 Y-8.9487
G01 X-62.8887 Y-8.9559
G01 X-62.8676 Y-8.9613
G01 X-62.8584 Y-8.9630
G01 X-62.8399 Y-8.9656
G01 X-62.8181 Y-8.9668
G01 X-53.1785 Y-8.9669
G01 X-53.1536 Y-8.9656
G01 X-53.1351 Y-8.9630
G01 X-53.1259 Y-8.9613
G01 X-53.1048 Y-8.9559
G01 X-53.0813 Y-8.9475
G01 X-53.0588 Y-8.9369
G01 X-53.0427 Y-8.9274
G01 X-53.0324 Y-8.9205
G01 X-53.0151 Y-8.9072
G01 X-52.9990 Y-8.8925
G01 X-52.9823 Y-8.8740
G01 X-52.9674 Y-8.8540
G01 X-52.9546 Y-8.8327
G01 X-52.9440 Y-8.8101
G01 X-52.9375 Y-8.7926
G01 X-52.9347 Y-8.7837
G01 X-52.9309 Y-8.7686
G01 X-52.9284 Y-8.7564
G01 X-52.9256 Y-8.7348
G01 X-52.9247 Y-8.7099
G01 X-52.9259 Y-8.6881
G01 X-52.9295 Y-8.6635
G01 X-52.9356 Y-8.6393
G01 X-52.9417 Y-8.6216
G01 X-52.9465 Y-8.6101
G01 X-52.9532 Y-8.5961
G01 X-52.9577 Y-8.5879
G01 X-52.9692 Y-8.5694
G01 X-52.9843 Y-8.5496
G01 X-52.9968 Y-8.5357
G01 X-53.0035 Y-8.5292
G01 X-53.0174 Y-8.5167
G01 X-53.0324 Y-8.5055
G01 X-53.0401 Y-8.5002
G01 X-53.0561 Y-8.4906
G01 X-53.1261 Y-8.4531
G01 X-53.2069 Y-8.3869
G01 X-53.2731 Y-8.3061
G01 X-53.3224 Y-8.2140
G01 X-53.3527 Y-8.1140
G01 X-53.3642 Y-7.9975
G01 X-53.3642 Y-6.7225
G01 X-53.3527 Y-6.6060
G01 X-53.3224 Y-6.5060
G01 X-53.2731 Y-6.4139
G01 X-53.2069 Y-6.3331
G01 X-53.1261 Y-6.2668
G01 X-53.0340 Y-6.2176
G01 X-52.9340 Y-6.1872
G01 X-52.8175 Y-6.1758
G01 X-52.5425 Y-6.1758
G01 X-52.4260 Y-6.1872
G01 X-52.3260 Y-6.2176
G01 X-52.2339 Y-6.2668
G01 X-52.2036 Y-6.2916
G01 X-52.1860 Y-6.3045
G01 X-52.1647 Y-6.3173
G01 X-52.1421 Y-6.3280
G01 X-52.1187 Y-6.3364
G01 X-52.0945 Y-6.3424
G01 X-52.0699 Y-6.3461
G01 X-52.0450 Y-6.3473
G01 X-52.0201 Y-6.3461
G01 X-51.9955 Y-6.3424
G01 X-51.9713 Y-6.3364
G01 X-51.9478 Y-6.3280
G01 X-51.9253 Y-6.3173
G01 X-51.9039 Y-6.3045
G01 X-51.8864 Y-6.2916
G01 X-51.8561 Y-6.2668
G01 X-51.7640 Y-6.2176
G01 X-51.6640 Y-6.1872
G01 X-51.5475 Y-6.1758
G01 X-51.2725 Y-6.1758
G01 X-51.1560 Y-6.1872
G01 X-51.0560 Y-6.2176
G01 X-50.9639 Y-6.2668
G01 X-50.9336 Y-6.2916
G01 X-50.9160 Y-6.3045
G01 X-50.8947 Y-6.3173
G01 X-50.8721 Y-6.3280
G01 X-50.8516 Y-6.3354
G01 X-50.8427 Y-6.3380
G01 X-50.8245 Y-6.3424
G01 X-50.8060 Y-6.3453
G01 X-50.7968 Y-6.3463
G01 X-50.7781 Y-6.3473
G01 X-50.7688 Y-6.3472
G01 X-50.7501 Y-6.3461
G01 X-50.7255 Y-6.3424
G01 X-50.7013 Y-6.3364
G01 X-50.6778 Y-6.3280
G01 X-50.6609 Y-6.3201
G01 X-50.6499 Y-6.3143
G01 X-50.6314 Y-6.3028
G01 X-50.6164 Y-6.2916
G01 X-50.5861 Y-6.2668
G01 X-50.4940 Y-6.2176
G01 X-50.4622 Y-6.2079
G01 X-50.4417 Y-6.2005
G01 X-50.4192 Y-6.1898
G01 X-50.4004 Y-6.1787
G01 X-50.3827 Y-6.1660
G01 X-50.3731 Y-6.1581
G01 X-50.3594 Y-6.1454
G01 X-50.3426 Y-6.1270
G01 X-50.3278 Y-6.1070
G01 X-50.3180 Y-6.0910
G01 X-50.3135 Y-6.0828
G01 X-50.3043 Y-6.0631
G01 X-50.2959 Y-6.0396
G01 X-50.2912 Y-6.0215
G01 X-50.2893 Y-6.0124
G01 X-50.2862 Y-5.9908
G01 X-50.2850 Y-5.9659
G01 X-50.2858 Y-5.9472
G01 X-50.2866 Y-5.9379
G01 X-50.2899 Y-5.9164
G01 X-50.2951 Y-5.8952
G01 X-50.2979 Y-5.8863
G01 X-50.3043 Y-5.8688
G01 X-50.3150 Y-5.8462
G01 X-50.3261 Y-5.8275
G01 X-50.3314 Y-5.8198
G01 X-50.3426 Y-5.8049
G01 X-50.3572 Y-5.7886
G01 X-53.1075 Y-3.0383
G01 X-53.1237 Y-3.0237
G01 X-53.1437 Y-3.0089
G01 X-53.1651 Y-2.9961
G01 X-53.1876 Y-2.9854
G01 X-53.2111 Y-2.9771
G01 X-53.2353 Y-2.9710
G01 X-53.2599 Y-2.9673
G01 X-53.2817 Y-2.9662
G01 X-58.1469 Y-2.9661
G01 X-58.1656 Y-2.9669
G01 X-58.1749 Y-2.9677
G01 X-58.1934 Y-2.9704
G01 X-58.2025 Y-2.9724
G01 X-58.2206 Y-2.9771
G01 X-58.2383 Y-2.9832
G01 X-58.2469 Y-2.9867
G01 X-58.2666 Y-2.9961
G01 X-58.2853 Y-3.0072
G01 X-58.2930 Y-3.0125
G01 X-58.3080 Y-3.0237
G01 X-58.3219 Y-3.0362
G01 X-58.3286 Y-3.0427
G01 X-58.3412 Y-3.0566
G01 X-58.3470 Y-3.0638
G01 X-58.3580 Y-3.0789
G01 X-58.3693 Y-3.0976
G01 X-58.3736 Y-3.1059
G01 X-58.3815 Y-3.1228
G01 X-58.3879 Y-3.1404
G01 X-58.3907 Y-3.1493
G01 X-58.3959 Y-3.1705
G01 X-58.3988 Y-3.1889
G01 X-58.3998 Y-3.1982
G01 X-58.4008 Y-3.2200
G01 X-58.4008 Y-3.3225
G01 X-58.4094 Y-3.4101
G01 X-58.4106 Y-3.4350
G01 X-58.4094 Y-3.4599
G01 X-58.4008 Y-3.5475
G01 X-58.4008 Y-3.9725
G01 X-58.4094 Y-4.0601
G01 X-58.4106 Y-4.0850
G01 X-58.4094 Y-4.1099
G01 X-58.4008 Y-4.1975
G01 X-58.4008 Y-4.6225
G01 X-58.4097 Y-4.7134
G01 X-58.4104 Y-4.7245
G01 X-58.4155 Y-4.7355
G01 X-58.4190 Y-4.7441
G01 X-58.4242 Y-4.7588
G01 X-58.4312 Y-4.7815
G01 X-58.4666 Y-4.8478
G01 X-58.5310 Y-4.9264
G01 X-58.5439 Y-4.9439
G01 X-58.5536 Y-4.9599
G01 X-58.5582 Y-4.9681
G01 X-58.5685 Y-4.9907
G01 X-58.5748 Y-5.0083
G01 X-58.5774 Y-5.0173
G01 X-58.5812 Y-5.0324
G01 X-58.5829 Y-5.0416
G01 X-58.5855 Y-5.0601
G01 X-58.5865 Y-5.0788
G01 X-58.5867 Y-5.0881
G01 X-58.5855 Y-5.1099
G01 X-58.5829 Y-5.1284
G01 X-58.5812 Y-5.1376
G01 X-58.5758 Y-5.1587
G01 X-58.5696 Y-5.1763
G01 X-58.5661 Y-5.1850
G01 X-58.5567 Y-5.2047
G01 X-58.5439 Y-5.2260
G01 X-58.5310 Y-5.2436
G01 X-58.4666 Y-5.3222
G01 X-58.4388 Y-5.3739
G01 X-58.4290 Y-5.3898
G01 X-58.4138 Y-5.4103
G01 X-58.4127 Y-5.4314
G01 X-58.4107 Y-5.4466
G01 X-58.4009 Y-5.5465
G01 X-58.4031 Y-5.8558
G01 X-58.4139 Y-5.8666
G01 X-58.6582 Y-5.8666
G01 X-58.6582 Y-5.5350
G01 X-58.6588 Y-5.5226
G01 X-58.6613 Y-5.5072
G01 X-58.6636 Y-5.4982
G01 X-58.6667 Y-5.4894
G01 X-58.6704 Y-5.4808
G01 X-58.6747 Y-5.4725
G01 X-58.6796 Y-5.4645
G01 X-58.6850 Y-5.4570
G01 X-58.6910 Y-5.4498
G01 X-58.6976 Y-5.4432
G01 X-58.7045 Y-5.4370
G01 X-58.7120 Y-5.4313
G01 X-58.7198 Y-5.4262
G01 X-58.7280 Y-5.4217
G01 X-58.7365 Y-5.4178
G01 X-58.7452 Y-5.4146
G01 X-58.7542 Y-5.4120
G01 X-58.7637 Y-5.4100
G01 X-58.7542 Y-5.4080
G01 X-58.7452 Y-5.4054
G01 X-58.7365 Y-5.4021
G01 X-58.7252 Y-5.3968
G01 X-58.7145 Y-5.3904
G01 X-58.7070 Y-5.3849
G01 X-58.6976 Y-5.3768
G01 X-58.6910 Y-5.3701
G01 X-58.6831 Y-5.3605
G01 X-58.6779 Y-5.3528
G01 X-58.6717 Y-5.3420
G01 X-58.6678 Y-5.3335
G01 X-58.6636 Y-5.3218
G01 X-58.6613 Y-5.3128
G01 X-58.6596 Y-5.3036
G01 X-58.6583 Y-5.2912
G01 X-58.6582 Y-4.8350
G01 X-58.6588 Y-4.8226
G01 X-58.6613 Y-4.8072
G01 X-58.6646 Y-4.7952
G01 X-58.6691 Y-4.7836
G01 X-58.6747 Y-4.7725
G01 X-58.6813 Y-4.7620
G01 X-58.6890 Y-4.7522
G01 X-58.6976 Y-4.7432
G01 X-58.7070 Y-4.7350
G01 X-58.6976 Y-4.7268
G01 X-58.6870 Y-4.7154
G01 X-58.6796 Y-4.7054
G01 X-58.6717 Y-4.6920
G01 X-58.6667 Y-4.6806
G01 X-58.6620 Y-4.6658
G01 X-58.6596 Y-4.6536
G01 X-58.6582 Y-4.6381
G01 X-58.6582 Y-4.1850
G01 X-58.6588 Y-4.1726
G01 X-58.6613 Y-4.1572
G01 X-58.6646 Y-4.1452
G01 X-58.6691 Y-4.1336
G01 X-58.6747 Y-4.1225
G01 X-58.6813 Y-4.1120
G01 X-58.6890 Y-4.1022
G01 X-58.6976 Y-4.0932
G01 X-58.7070 Y-4.0850
G01 X-58.6976 Y-4.0768
G01 X-58.6870 Y-4.0654
G01 X-58.6779 Y-4.0528
G01 X-58.6717 Y-4.0420
G01 X-58.6667 Y-4.0306
G01 X-58.6620 Y-4.0158
G01 X-58.6596 Y-4.0036
G01 X-58.6582 Y-3.9881
G01 X-58.6582 Y-3.5350
G01 X-58.6588 Y-3.5226
G01 X-58.6613 Y-3.5072
G01 X-58.6646 Y-3.4952
G01 X-58.6691 Y-3.4836
G01 X-58.6747 Y-3.4725
G01 X-58.6813 Y-3.4620
G01 X-58.6890 Y-3.4522
G01 X-58.6976 Y-3.4432
G01 X-58.7070 Y-3.4350
G01 X-58.6976 Y-3.4268
G01 X-58.6890 Y-3.4178
G01 X-58.6796 Y-3.4054
G01 X-58.6732 Y-3.3948
G01 X-58.6678 Y-3.3835
G01 X-58.6636 Y-3.3718
G01 X-58.6606 Y-3.3597
G01 X-58.6585 Y-3.3443
G01 X-58.6582 Y-3.3350
G01 X-58.6582 Y-2.8850
G01 X-58.6588 Y-2.8726
G01 X-58.6613 Y-2.8572
G01 X-58.6646 Y-2.8452
G01 X-58.6691 Y-2.8336
G01 X-58.6747 Y-2.8225
G01 X-58.6813 Y-2.8120
G01 X-58.6890 Y-2.8022
G01 X-58.6976 Y-2.7932
G01 X-58.7070 Y-2.7850
G01 X-58.6998 Y-2.7789
G01 X-58.6910 Y-2.7701
G01 X-58.6831 Y-2.7605
G01 X-58.6779 Y-2.7528
G01 X-58.6732 Y-2.7448
G01 X-58.6678 Y-2.7335
G01 X-58.6636 Y-2.7218
G01 X-58.6611 Y-2.7119
G01 X-53.0743 Y-2.7119
G01 X-49.2417 Y-6.5445
G01 X-49.2518 Y-6.5588
G01 X-49.2641 Y-6.5795
G01 X-49.2757 Y-6.6041
G01 X-49.2829 Y-6.6237
G01 X-49.2865 Y-6.6356
G01 X-49.2920 Y-6.6590
G01 X-49.2955 Y-6.6829
G01 X-49.2966 Y-6.7038
G01 X-49.2968 Y-8.0100
G01 X-49.2955 Y-8.0371
G01 X-49.2915 Y-8.0640
G01 X-49.2849 Y-8.0903
G01 X-49.2780 Y-8.1101
G01 X-49.2732 Y-8.1216
G01 X-49.2655 Y-8.1377
G01 X-49.2610 Y-8.1459
G01 X-49.2484 Y-8.1663
G01 X-49.2320 Y-8.1880
G01 X-49.2157 Y-8.2057
G01 X-49.1956 Y-8.2240
G01 X-49.1738 Y-8.2401
G01 X-49.1559 Y-8.2510
G01 X-49.1477 Y-8.2555
G01 X-49.1316 Y-8.2632
G01 X-49.1201 Y-8.2680
G01 X-49.0974 Y-8.2757
G01 X-49.0709 Y-8.2820
G01 X-49.0471 Y-8.2855
G01 X-49.0200 Y-8.2868
G01 X-48.7200 Y-8.2868
G01 X-48.6991 Y-8.2859
G01 X-48.6898 Y-8.2851
G01 X-48.6660 Y-8.2815
G01 X-48.6456 Y-8.2765
G01 X-48.6367 Y-8.2739
G01 X-48.6170 Y-8.2669
G01 X-48.6084 Y-8.2632
G01 X-48.5895 Y-8.2541
G01 X-48.5688 Y-8.2418
G01 X-48.5611 Y-8.2366
G01 X-48.5444 Y-8.2240
G01 X-48.5288 Y-8.2100
G01 X-48.5221 Y-8.2035
G01 X-48.5080 Y-8.1880
G01 X-48.5022 Y-8.1807
G01 X-48.4898 Y-8.1638
G01 X-48.4789 Y-8.1459
G01 X-48.4744 Y-8.1377
G01 X-48.4643 Y-8.1159
G01 X-48.4571 Y-8.0962
G01 X-48.4542 Y-8.0874
G01 X-48.4485 Y-8.0640
G01 X-48.4453 Y-8.0433
G01 X-48.4443 Y-8.0340
G01 X-48.4432 Y-8.0131
G01 X-48.4432 Y-6.7100
G01 X-48.4443 Y-6.6860
G01 X-48.4453 Y-6.6767
G01 X-48.4485 Y-6.6560
G01 X-48.4551 Y-6.6296
G01 X-48.4643 Y-6.6041
G01 X-48.4731 Y-6.5851
G01 X-48.4789 Y-6.5741
G01 X-48.4881 Y-6.5588
G01 X-48.4934 Y-6.5511
G01 X-48.5060 Y-6.5344
G01 X-48.5243 Y-6.5143
G01 X-48.5444 Y-6.4960
G01 X-48.5636 Y-6.4816
G01 X-48.5868 Y-6.4674
G01 X-48.6084 Y-6.4568
G01 X-48.6170 Y-6.4531
G01 X-48.6337 Y-6.4471
G01 X-48.6469 Y-6.4431
G01 X-48.6572 Y-6.4253
G01 X-48.6642 Y-6.4150
G01 X-48.6753 Y-6.4002
G01 X-48.6919 Y-6.3819
G01 X-52.7919 Y-2.2819
G01 X-52.8078 Y-2.2673
G01 X-52.8151 Y-2.2615
G01 X-52.8301 Y-2.2506
G01 X-52.8458 Y-2.2409
G01 X-52.8540 Y-2.2364
G01 X-52.8736 Y-2.2273
G01 X-52.8910 Y-2.2209
G01 X-52.8999 Y-2.2181
G01 X-52.9209 Y-2.2130
G01 X-52.9391 Y-2.2101
G01 X-52.9484 Y-2.2091
G01 X-52.9700 Y-2.2081
G01 X-58.6611 Y-2.2081
G01 X-58.6636 Y-2.1982
G01 X-58.6667 Y-2.1894
G01 X-58.6704 Y-2.1808
G01 X-58.6747 Y-2.1725
G01 X-58.6796 Y-2.1645
G01 X-58.6850 Y-2.1570
G01 X-58.6910 Y-2.1498
G01 X-58.6976 Y-2.1432
G01 X-58.7045 Y-2.1370
G01 X-58.7120 Y-2.1313
G01 X-58.7198 Y-2.1262
G01 X-58.7280 Y-2.1217
G01 X-58.7365 Y-2.1178
G01 X-58.7452 Y-2.1146
G01 X-58.7542 Y-2.1120
G01 X-58.7637 Y-2.1100
G00 Z2.0000
G00 X-59.1791 Y-0.4332
G01 F60.00
G01 Z-0.1000
G01 F120.00
G01 X-58.7819 Y-0.4332
G01 X-58.7664 Y-0.4346
G01 X-58.7512 Y-0.4378
G01 X-58.7365 Y-0.4428
G01 X-58.7225 Y-0.4497
G01 X-58.7120 Y-0.4563
G01 X-58.6998 Y-0.4660
G01 X-58.6910 Y-0.4748
G01 X-58.6813 Y-0.4870
G01 X-58.6732 Y-0.5002
G01 X-58.6667 Y-0.5144
G01 X-58.6628 Y-0.5262
G01 X-58.6596 Y-0.5414
G01 X-58.6585 Y-0.5507
G01 X-58.6582 Y-0.5600
G01 X-58.6582 Y-0.8916
G01 X-58.4139 Y-0.8916
G01 X-58.4031 Y-0.8808
G01 X-58.4009 Y-0.5715
G01 X-58.4094 Y-0.4853
G01 X-58.4312 Y-0.4134
G01 X-58.4666 Y-0.3472
G01 X-58.5142 Y-0.2892
G01 X-58.5722 Y-0.2416
G01 X-58.6384 Y-0.2062
G01 X-58.7103 Y-0.1844
G01 X-58.7967 Y-0.1759
G01 X-59.1684 Y-0.1782
G01 X-59.1791 Y-0.1889
G01 X-59.1791 Y-0.4332
G00 Z2.0000
G00 X-59.4422 Y6.0191
G01 F60.00
G01 Z-0.1000
G01 F120.00
G01 X-59.6380 Y6.0191
G01 X-59.6736 Y5.8989
G01 X-59.6177 Y5.6922
G01 X-59.4393 Y5.3108
G01 X-59.1915 Y4.9739
G01 X-58.8828 Y4.6918
G01 X-58.5250 Y4.4753
G01 X-58.1318 Y4.3328
G01 X-57.7127 Y4.2689
G01 X-56.2359 Y4.2689
G01 X-56.2359 Y4.5232
G01 X-57.6050 Y4.5232
G01 X-57.7889 Y4.5322
G01 X-57.9711 Y4.5593
G01 X-58.1498 Y4.6040
G01 X-58.3232 Y4.6661
G01 X-58.4897 Y4.7448
G01 X-58.6477 Y4.8395
G01 X-58.7956 Y4.9492
G01 X-58.9321 Y5.0729
G01 X-59.0517 Y5.2047
G01 X-59.0596 Y5.2143
G01 X-59.1655 Y5.3573
G01 X-59.2571 Y5.5099
G01 X-59.2630 Y5.5209
G01 X-59.3364 Y5.6761
G01 X-59.3412 Y5.6876
G01 X-59.4010 Y5.8552
G01 X-59.4422 Y6.0191
G00 Z2.0000
G00 X-59.4422 Y6.7809
G01 F60.00
G01 Z-0.1000
G01 F120.00
G01 X-59.4010 Y6.9448
G01 X-59.3412 Y7.1124
G01 X-59.3364 Y7.1239
G01 X-59.2630 Y7.2792
G01 X-59.2571 Y7.2901
G01 X-59.1655 Y7.4427
G01 X-59.0596 Y7.5857
G01 X-59.0517 Y7.5954
G01 X-58.9321 Y7.7271
G01 X-58.7956 Y7.8508
G01 X-58.6477 Y7.9605
G01 X-58.4897 Y8.0552
G01 X-58.3232 Y8.1339
G01 X-58.1498 Y8.1960
G01 X-57.9711 Y8.2408
G01 X-57.7889 Y8.2678
G01 X-57.6050 Y8.2768
G01 X-56.2359 Y8.2768
G01 X-56.2359 Y8.5311
G01 X-57.7127 Y8.5311
G01 X-58.1318 Y8.4672
G01 X-58.5250 Y8.3247
G01 X-58.8828 Y8.1082
G01 X-59.1915 Y7.8261
G01 X-59.4393 Y7.4892
G01 X-59.6177 Y7.1078
G01 X-59.6736 Y6.9012
G01 X-59.6380 Y6.7809
G01 X-59.4422 Y6.7809
G00 Z2.0000
G00 X-59.4422 Y16.1791
G01 F60.00
G01 Z-0.1000
G01 F120.00
G01 X-59.6380 Y16.1791
G01 X-59.6736 Y16.0589
G01 X-59.6177 Y15.8522
G01 X-59.4393 Y15.4708
G01 X-59.1915 Y15.1339
G01 X-58.8828 Y14.8518
G01 X-58.5250 Y14.6353
G01 X-58.1318 Y14.4928
G01 X-57.7127 Y14.4289
G01 X-56.2359 Y14.4289
G01 X-56.2359 Y14.6832
G01 X-57.6050 Y14.6832
G01 X-57.7889 Y14.6922
G01 X-57.9711 Y14.7193
G01 X-58.1498 Y14.7640
G01 X-58.3232 Y14.8261
G01 X-58.4897 Y14.9048
G01 X-58.6477 Y14.9995
G01 X-58.7956 Y15.1092
G01 X-58.9321 Y15.2329
G01 X-59.0517 Y15.3647
G01 X-59.0596 Y15.3743
G01 X-59.1655 Y15.5173
G01 X-59.2571 Y15.6699
G01 X-59.2630 Y15.6809
G01 X-59.3364 Y15.8361
G01 X-59.3412 Y15.8476
G01 X-59.4010 Y16.0152
G01 X-59.4422 Y16.1791
G00 Z2.0000
G00 X-59.4422 Y16.9409
G01 F60.00
G01 Z-0.1000
G01 F120.00
G01 X-59.4010 Y17.1048
G01 X-59.3412 Y17.2724
G01 X-59.3364 Y17.2839
G01 X-59.2630 Y17.4392
G01 X-59.2571 Y17.4501
G01 X-59.1655 Y17.6027
G01 X-59.0596 Y17.7457
G01 X-59.0517 Y17.7554
G01 X-58.9321 Y17.8871
G01 X-58.7956 Y18.0108
G01 X-58.6477 Y18.1205
G01 X-58.4897 Y18.2152
G01 X-58.3232 Y18.2939
G01 X-58.1498 Y18.3560
G01 X-57.9711 Y18.4008
G01 X-57.7889 Y18.4278
G01 X-57.6050 Y18.4368
G01 X-56.2359 Y18.4368
G01 X-56.2359 Y18.6911
G01 X-57.7127 Y18.6911
G01 X-58.1318 Y18.6272
G01 X-58.5250 Y18.4847
G01 X-58.8828 Y18.2682
G01 X-59.1915 Y17.9861
G01 X-59.4393 Y17.6492
G01 X-59.6177 Y17.2678
G01 X-59.6736 Y17.0612
G01 X-59.6380 Y16.9409
G01 X-59.4422 Y16.9409
G00 Z2.0000
G00 X-52.2678 Y16.9409
G01 F60.00
G01 Z-0.1000
G01 F120.00
G01 X-52.0720 Y16.9409
G01 X-52.0364 Y17.0612
G01 X-52.0922 Y17.2678
G01 X-52.2707 Y17.6492
G01 X-52.5184 Y17.9861
G01 X-52.8272 Y18.2682
G01 X-53.1850 Y18.4847
G01 X-53.5781 Y18.6272
G01 X-53.9972 Y18.6911
G01 X-55.4741 Y18.6911
G01 X-55.4741 Y18.4368
G01 X-54.1050 Y18.4368
G01 X-53.9210 Y18.4278
G01 X-53.7388 Y18.4008
G01 X-53.5602 Y18.3560
G01 X-53.3868 Y18.2939
G01 X-53.2203 Y18.2152
G01 X-53.0623 Y18.1205
G01 X-52.9144 Y18.0108
G01 X-52.7779 Y17.8871
G01 X-52.6583 Y17.7554
G01 X-52.6504 Y17.7457
G01 X-52.5445 Y17.6027
G01 X-52.4529 Y17.4501
G01 X-52.4470 Y17.4392
G01 X-52.3736 Y17.2839
G01 X-52.3688 Y17.2724
G01 X-52.3090 Y17.1048
G01 X-52.2678 Y16.9409
G00 Z2.0000
G00 X-52.2678 Y16.1791
G01 F60.00
G01 Z-0.1000
G01 F120.00
G01 X-52.3090 Y16.0152
G01 X-52.3688 Y15.8476
G01 X-52.3736 Y15.8361
G01 X-52.4470 Y15.6809
G01 X-52.4529 Y15.6699
G01 X-52.5445 Y15.5173
G01 X-52.6504 Y15.3743
G01 X-52.6583 Y15.3647
G01 X-52.7779 Y15.2329
G01 X-52.9144 Y15.1092
G01 X-53.0623 Y14.9995
G01 X-53.2203 Y14.9048
G01 X-53.3868 Y14.8261
G01 X-53.5602 Y14.7640
G01 X-53.7388 Y14.7193
G01 X-53.9210 Y14.6922
G01 X-54.1050 Y14.6832
G01 X-55.4741 Y14.6832
G01 X-55.4741 Y14.4289
G01 X-53.9972 Y14.4289
G01 X-53.5781 Y14.4928
G01 X-53.1850 Y14.6353
G01 X-52.8272 Y14.8518
G01 X-52.5184 Y15.1339
G01 X-52.2707 Y15.4708
G01 X-52.0922 Y15.8522
G01 X-52.0364 Y16.0589
G01 X-52.0720 Y16.1791
G01 X-52.2678 Y16.1791
G00 Z2.0000
M05
G00 Z2.0000
G00 Z15.00


