(G-CODE GENERATED BY FLATCAM v8.994 - www.flatcam.org - Version Date: 2020/11/7)

(Name: fast_diode_pcb-Edge_Cuts.gbr_cutout_cnc)
(Type: G-code from Geometry)
(Units: MM)

(Created on Tuesday, 16 January 2024 at 15:23)

(This preprocessor is the default preprocessor used by FlatCAM.)
(It is made to work with MACH3 compatible motion controllers.)

(TOOL DIAMETER: 0.8 mm)
(Feedrate_XY: 120.0 mm/min)
(Feedrate_Z: 60.0 mm/min)
(Feedrate rapids 1500.0 mm/min)

(Z_Cut: -1.8 mm)
(DepthPerCut: 0.6 mm <=>3 passes)
(Z_Move: 2.0 mm)
(Z Start: None mm)
(Z End: 15.0 mm)
(X,Y End: None mm)
(Steps per circle: 64)
(Preprocessor Geometry: default)

(X range:  -66.5000 ...  -14.0550  mm)
(Y range:  -12.5000 ...   20.2600  mm)

(Spindle Speed: 0.0 RPM)
G21
G90
G94

G01 F120.00

M5
G00 Z15.0000
G00 X0.0000 Y0.0000
T3M6    
(MSG, Change to Tool Dia = 0.8000)
M0
G00 Z15.0000

M03
G01 F120.00
G00 X-14.0550 Y1.5800
G01 F60.00
G01 Z-0.6000
G01 F120.00
G01 X-14.0550 Y-12.0000
G01 X-14.0574 Y-12.0490
G01 X-14.0646 Y-12.0975
G01 X-14.0765 Y-12.1451
G01 X-14.0930 Y-12.1913
G01 X-14.1140 Y-12.2357
G01 X-14.1392 Y-12.2778
G01 X-14.1685 Y-12.3172
G01 X-14.2014 Y-12.3536
G01 X-14.2378 Y-12.3865
G01 X-14.2772 Y-12.4157
G01 X-14.3193 Y-12.4410
G01 X-14.3636 Y-12.4619
G01 X-14.4098 Y-12.4785
G01 X-14.4574 Y-12.4904
G01 X-14.5060 Y-12.4976
G01 X-14.5550 Y-12.5000
G01 X-37.7775 Y-12.5000
G00 X-37.7775 Y-12.5000
G01 F60.00
G01 Z-1.2000
G01 F120.00
G01 X-14.5550 Y-12.5000
G01 X-14.5060 Y-12.4976
G01 X-14.4574 Y-12.4904
G01 X-14.4098 Y-12.4785
G01 X-14.3636 Y-12.4619
G01 X-14.3193 Y-12.4410
G01 X-14.2772 Y-12.4157
G01 X-14.2378 Y-12.3865
G01 X-14.2014 Y-12.3536
G01 X-14.1685 Y-12.3172
G01 X-14.1392 Y-12.2778
G01 X-14.1140 Y-12.2357
G01 X-14.0930 Y-12.1913
G01 X-14.0765 Y-12.1451
G01 X-14.0646 Y-12.0975
G01 X-14.0574 Y-12.0490
G01 X-14.0550 Y-12.0000
G01 X-14.0550 Y1.5800
G00 X-14.0550 Y1.5800
G01 F60.00
G01 Z-1.8000
G01 F120.00
G01 X-14.0550 Y-12.0000
G01 X-14.0574 Y-12.0490
G01 X-14.0646 Y-12.0975
G01 X-14.0765 Y-12.1451
G01 X-14.0930 Y-12.1913
G01 X-14.1140 Y-12.2357
G01 X-14.1392 Y-12.2778
G01 X-14.1685 Y-12.3172
G01 X-14.2014 Y-12.3536
G01 X-14.2378 Y-12.3865
G01 X-14.2772 Y-12.4157
G01 X-14.3193 Y-12.4410
G01 X-14.3636 Y-12.4619
G01 X-14.4098 Y-12.4785
G01 X-14.4574 Y-12.4904
G01 X-14.5060 Y-12.4976
G01 X-14.5550 Y-12.5000
G01 X-37.7775 Y-12.5000
G00 Z2.0000
G00 X-42.5775 Y-12.5000
G01 F60.00
G01 Z-0.6000
G01 F120.00
G01 X-66.0000 Y-12.5000
G01 X-66.0490 Y-12.4976
G01 X-66.0975 Y-12.4904
G01 X-66.1451 Y-12.4785
G01 X-66.1913 Y-12.4619
G01 X-66.2357 Y-12.4410
G01 X-66.2778 Y-12.4157
G01 X-66.3172 Y-12.3865
G01 X-66.3536 Y-12.3536
G01 X-66.3865 Y-12.3172
G01 X-66.4157 Y-12.2778
G01 X-66.4410 Y-12.2357
G01 X-66.4619 Y-12.1913
G01 X-66.4785 Y-12.1451
G01 X-66.4904 Y-12.0975
G01 X-66.4976 Y-12.0490
G01 X-66.5000 Y-12.0000
G01 X-66.5000 Y1.5800
G00 X-66.5000 Y1.5800
G01 F60.00
G01 Z-1.2000
G01 F120.00
G01 X-66.5000 Y-12.0000
G01 X-66.4976 Y-12.0490
G01 X-66.4904 Y-12.0975
G01 X-66.4785 Y-12.1451
G01 X-66.4619 Y-12.1913
G01 X-66.4410 Y-12.2357
G01 X-66.4157 Y-12.2778
G01 X-66.3865 Y-12.3172
G01 X-66.3536 Y-12.3536
G01 X-66.3172 Y-12.3865
G01 X-66.2778 Y-12.4157
G01 X-66.2357 Y-12.4410
G01 X-66.1913 Y-12.4619
G01 X-66.1451 Y-12.4785
G01 X-66.0975 Y-12.4904
G01 X-66.0490 Y-12.4976
G01 X-66.0000 Y-12.5000
G01 X-42.5775 Y-12.5000
G00 X-42.5775 Y-12.5000
G01 F60.00
G01 Z-1.8000
G01 F120.00
G01 X-66.0000 Y-12.5000
G01 X-66.0490 Y-12.4976
G01 X-66.0975 Y-12.4904
G01 X-66.1451 Y-12.4785
G01 X-66.1913 Y-12.4619
G01 X-66.2357 Y-12.4410
G01 X-66.2778 Y-12.4157
G01 X-66.3172 Y-12.3865
G01 X-66.3536 Y-12.3536
G01 X-66.3865 Y-12.3172
G01 X-66.4157 Y-12.2778
G01 X-66.4410 Y-12.2357
G01 X-66.4619 Y-12.1913
G01 X-66.4785 Y-12.1451
G01 X-66.4904 Y-12.0975
G01 X-66.4976 Y-12.0490
G01 X-66.5000 Y-12.0000
G01 X-66.5000 Y1.5800
G00 Z2.0000
G00 X-66.5000 Y6.3800
G01 F60.00
G01 Z-0.6000
G01 F120.00
G01 X-66.5000 Y19.7600
G01 X-66.4976 Y19.8090
G01 X-66.4904 Y19.8576
G01 X-66.4785 Y19.9052
G01 X-66.4619 Y19.9514
G01 X-66.4410 Y19.9957
G01 X-66.4157 Y20.0378
G01 X-66.3865 Y20.0772
G01 X-66.3536 Y20.1136
G01 X-66.3172 Y20.1465
G01 X-66.2778 Y20.1758
G01 X-66.2357 Y20.2010
G01 X-66.1913 Y20.2220
G01 X-66.1451 Y20.2385
G01 X-66.0975 Y20.2504
G01 X-66.0490 Y20.2576
G01 X-66.0000 Y20.2600
G01 X-42.5775 Y20.2600
G00 X-42.5775 Y20.2600
G01 F60.00
G01 Z-1.2000
G01 F120.00
G01 X-66.0000 Y20.2600
G01 X-66.0490 Y20.2576
G01 X-66.0975 Y20.2504
G01 X-66.1451 Y20.2385
G01 X-66.1913 Y20.2220
G01 X-66.2357 Y20.2010
G01 X-66.2778 Y20.1758
G01 X-66.3172 Y20.1465
G01 X-66.3536 Y20.1136
G01 X-66.3865 Y20.0772
G01 X-66.4157 Y20.0378
G01 X-66.4410 Y19.9957
G01 X-66.4619 Y19.9514
G01 X-66.4785 Y19.9052
G01 X-66.4904 Y19.8576
G01 X-66.4976 Y19.8090
G01 X-66.5000 Y19.7600
G01 X-66.5000 Y6.3800
G00 X-66.5000 Y6.3800
G01 F60.00
G01 Z-1.8000
G01 F120.00
G01 X-66.5000 Y19.7600
G01 X-66.4976 Y19.8090
G01 X-66.4904 Y19.8576
G01 X-66.4785 Y19.9052
G01 X-66.4619 Y19.9514
G01 X-66.4410 Y19.9957
G01 X-66.4157 Y20.0378
G01 X-66.3865 Y20.0772
G01 X-66.3536 Y20.1136
G01 X-66.3172 Y20.1465
G01 X-66.2778 Y20.1758
G01 X-66.2357 Y20.2010
G01 X-66.1913 Y20.2220
G01 X-66.1451 Y20.2385
G01 X-66.0975 Y20.2504
G01 X-66.0490 Y20.2576
G01 X-66.0000 Y20.2600
G01 X-42.5775 Y20.2600
G00 Z2.0000
G00 X-37.7775 Y20.2600
G01 F60.00
G01 Z-0.6000
G01 F120.00
G01 X-14.5550 Y20.2600
G01 X-14.5060 Y20.2576
G01 X-14.4574 Y20.2504
G01 X-14.4098 Y20.2385
G01 X-14.3636 Y20.2220
G01 X-14.3193 Y20.2010
G01 X-14.2772 Y20.1758
G01 X-14.2378 Y20.1465
G01 X-14.2014 Y20.1136
G01 X-14.1685 Y20.0772
G01 X-14.1392 Y20.0378
G01 X-14.1140 Y19.9957
G01 X-14.0930 Y19.9514
G01 X-14.0765 Y19.9052
G01 X-14.0646 Y19.8576
G01 X-14.0574 Y19.8090
G01 X-14.0550 Y19.7600
G01 X-14.0550 Y6.3800
G00 X-14.0550 Y6.3800
G01 F60.00
G01 Z-1.2000
G01 F120.00
G01 X-14.0550 Y19.7600
G01 X-14.0574 Y19.8090
G01 X-14.0646 Y19.8576
G01 X-14.0765 Y19.9052
G01 X-14.0930 Y19.9514
G01 X-14.1140 Y19.9957
G01 X-14.1392 Y20.0378
G01 X-14.1685 Y20.0772
G01 X-14.2014 Y20.1136
G01 X-14.2378 Y20.1465
G01 X-14.2772 Y20.1758
G01 X-14.3193 Y20.2010
G01 X-14.3636 Y20.2220
G01 X-14.4098 Y20.2385
G01 X-14.4574 Y20.2504
G01 X-14.5060 Y20.2576
G01 X-14.5550 Y20.2600
G01 X-37.7775 Y20.2600
G00 X-37.7775 Y20.2600
G01 F60.00
G01 Z-1.8000
G01 F120.00
G01 X-14.5550 Y20.2600
G01 X-14.5060 Y20.2576
G01 X-14.4574 Y20.2504
G01 X-14.4098 Y20.2385
G01 X-14.3636 Y20.2220
G01 X-14.3193 Y20.2010
G01 X-14.2772 Y20.1758
G01 X-14.2378 Y20.1465
G01 X-14.2014 Y20.1136
G01 X-14.1685 Y20.0772
G01 X-14.1392 Y20.0378
G01 X-14.1140 Y19.9957
G01 X-14.0930 Y19.9514
G01 X-14.0765 Y19.9052
G01 X-14.0646 Y19.8576
G01 X-14.0574 Y19.8090
G01 X-14.0550 Y19.7600
G01 X-14.0550 Y6.3800
G00 Z2.0000
M05
G00 Z2.0000
G00 Z15.00


